%
(2022-02-12 15:55)
(Linuxcnc)
( Tool 21 | 0.8 DRILL | H0 )
N100 G21
N110 G0 G17 G40 G49 G80 G90
/ N120 G91 G30 Z0.
/ N130 G30 X0. Y0.
/ N140 G92 X0. Y0. Z0.
N150 G64 P.01
N160 T21 M6
N170 G0 G90 X2.438 Y6.858 S20000 M3
N180 G43 H0 Z2.
N190 G99 G81 Z-2. R2. F1000.
N200 X4.953
N210 X7.493
N220 Y9.398
N230 X10.033
N240 Y6.858
N250 X15.113
N260 X17.653
N270 X20.193
N280 X22.733
N290 X25.298
N300 X27.813
N310 X30.378
N320 X32.893
N330 Y14.478
N340 X30.378
N350 X27.813
N360 Y16.992
N370 X25.298
N380 Y14.478
N390 X22.733
N400 Y16.992
N410 X20.193 Y14.478
N420 X17.653
N430 Y16.992
N440 X15.113
N450 Y14.478
N460 X12.573 Y16.992
N470 X17.653 Y19.558
N480 X27.813
N490 X37.973
N500 Y16.992
N510 Y14.478
N520 X41.808 Y5.562
N530 G80
(-->>)
N540 G0
(--<<)
N550 M5
N560 G91 G30 Z0.
N570 G30 X0. Y0.
N580 M30
%
