%
(2022-02-03 21:51)
(Linuxcnc)
( Tool 21 | 0.8 DRILL | H0 )
N100 G21
N110 G0 G17 G40 G49 G80 G90
/ N120 G91 G30 Z0.
/ N130 G30 X0. Y0.
/ N140 G92 X0. Y0. Z0.
N150 G64 P.01
N160 T21 M6
N170 G0 G90 X7. Y7. S20000 M3
N180 G43 H0 Z2.
N190 G99 G81 Z-2. R2. F1000.
N200 X14.62 Y4.46
N210 X18.43
N220 X22.24
N230 Y9.54
N240 X18.43
N250 X14.62 Y12.055
N260 X12.537 Y22.24
N270 X19.7 Y32.4
N280 Y34.94
N290 Y37.48
N300 X17.16 Y40.02
N310 X12.08
N320 Y37.48
N330 Y34.94
N340 X7.
N350 Y40.02
N360 X12.842 Y47.64
N370 X12.969 Y51.45
N380 X12.842 Y60.34
N390 X9.54
N400 X12.969 Y68.316
N410 X12.842 Y73.04
N420 X15.89 Y74.31
N430 X18.43
N440 X20.97
N450 X23.51
N460 Y69.23
N470 X20.97
N480 X27.32 Y70.475
N490 X31.13 Y66.69
N500 X32.4 Y62.88
N510 X29.86
N520 X27.32
N530 Y55.26
N540 X24.78
N550 Y52.72
N560 X22.24 Y55.26
N570 X29.86
N580 X32.4
N590 X34.94
N600 X37.48
N610 X47.64 Y60.34
N620 X52.72 Y68.316
N630 X57.8 Y70.475
N640 Y75.58
N650 X62.88 Y73.04
N660 X65.42
N670 X67.96
N680 X70.5
N690 X73.04
N700 X75.58
N710 X78.12
N720 X80.66
N730 X83.2
N740 X85.74
N750 X88.28
N760 X90.82
N770 X93.36
N780 X95.9
N790 X98.44
N800 X100.98
N810 X103.52 Y75.58
N820 Y78.12
N830 X100.98
N840 X103.52 Y80.66
N850 X93.36 Y78.12
N860 X90.82
N870 X88.28
N880 X85.74
N890 X83.2
N900 X80.66
N910 Y75.58
N920 X83.2 Y70.475
N930 X88.28 Y65.42
N940 Y62.88
N950 X85.74 Y60.34
N960 X83.2
N970 Y57.775
N980 X80.66
N990 X78.12
N1000 X75.58
N1010 X73.04
N1020 X70.5
N1030 X67.96
N1040 X65.42
N1050 X67.96 Y52.72
N1060 X70.5
N1070 Y47.64
N1080 Y42.56
N1090 Y37.48
N1100 X73.04
N1110 X75.58
N1120 X78.12 Y40.02
N1130 X83.2 Y36.21
N1140 Y32.4
N1150 X85.74 Y29.86
N1160 X88.28 Y32.4
N1170 X90.82 Y36.21
N1180 X93.36
N1190 X95.9
N1200 X98.44
N1210 X100.98 Y40.02
N1220 X103.52 Y36.21
N1230 X106.06
N1240 X108.6 Y37.48
N1250 Y40.02
N1260 Y47.64
N1270 X112.41 Y50.18
N1280 X114.95
N1290 X117.49
N1300 X108.6 Y52.72
N1310 X106.06
N1320 Y55.26
N1330 X103.52
N1340 Y52.72
N1350 X100.98 Y57.775
N1360 X98.44
N1370 X95.9
N1380 Y55.26
N1390 X93.36
N1400 Y57.775
N1410 X90.82
N1420 X88.28
N1430 Y55.26
N1440 X85.74
N1450 Y57.775
N1460 X88.28 Y52.72
N1470 X93.36 Y50.18
N1480 Y60.34
N1490 X95.9 Y62.88
N1500 Y65.42
N1510 X98.44 Y60.34
N1520 X100.98
N1530 X106.06 Y65.42
N1540 X112.41 Y70.475
N1550 X114.95
N1560 X117.49
N1570 X120.03
N1580 X116.22 Y78.12
N1590 X114.95 Y60.34
N1600 X112.41
N1610 X117.49
N1620 X120.03
N1630 X116.22 Y32.4
N1640 Y28.412
N1650 Y24.399
N1660 Y20.411
N1670 Y15.89
N1680 X109.87 Y14.62
N1690 X108.6 Y17.16
N1700 X106.06
N1710 Y19.7
N1720 Y22.24
N1730 Y24.755
N1740 X108.6
N1750 Y29.86
N1760 X100.98 Y32.4
N1770 X98.44 Y27.32
N1780 X95.9
N1790 X93.36
N1800 X88.28 Y24.755
N1810 Y22.24
N1820 Y19.7
N1830 X94.63
N1840 Y17.16
N1850 X98.44 Y14.62
N1860 X102.25 Y17.16
N1870 Y19.7
N1880 X103.52 Y23.51
N1890 X106.06 Y14.62
N1900 X106.238 Y7.
N1910 X109.87
N1920 X116.22
N1930 X102.25
N1940 X93.36
N1950 Y9.54
N1960 X90.82 Y12.055
N1970 X88.28 Y9.54
N1980 Y7.
N1990 X80.66
N2000 Y14.62
N2010 X78.12
N2020 Y22.24
N2030 X80.66
N2040 Y24.755
N2050 X75.58 Y32.4
N2060 X73.04 Y34.94
N2070 X70.5 Y32.4
N2080 X67.96
N2090 Y34.94
N2100 Y37.48
N2110 X62.88
N2120 Y40.02
N2130 X60.34
N2140 X57.8 Y42.56
N2150 X55.26
N2160 Y45.1
N2170 X50.18
N2180 X47.64 Y47.64
N2190 X52.72 Y51.45
N2200 X57.8 Y50.18
N2210 X60.34
N2220 Y55.26
N2230 X62.88 Y45.1
N2240 Y42.56
N2250 Y34.94
N2260 X60.34
N2270 Y32.4
N2280 X62.88
N2290 X55.26
N2300 Y37.48
N2310 X50.18 Y34.94
N2320 X47.64 Y37.48
N2330 X45.1
N2340 X42.56
N2350 X45.1 Y34.94
N2360 Y32.4
N2370 X47.64
N2380 X40.02
N2390 Y34.94
N2400 X34.94 Y37.48
N2410 X29.86 Y40.02
N2420 X27.32
N2430 X24.78
N2440 Y37.48
N2450 Y32.4
N2460 X27.32
N2470 X29.86
N2480 X24.78 Y45.1
N2490 X38.75 Y66.69
N2500 Y69.23
N2510 X41.29
N2520 X36.21
N2530 X47.64 Y73.04
N2540 X65.42 Y78.12
N2550 X67.96
N2560 X70.5
N2570 X73.04
N2580 X75.58 Y70.475
N2590 X73.04 Y60.34
N2600 X70.5 Y22.24
N2610 X67.96 Y12.055
N2620 X65.42 Y9.54
N2630 X62.88 Y12.055
N2640 X57.8
N2650 Y9.54
N2660 Y7.
N2670 X60.34
N2680 Y4.46
N2690 X57.8
N2700 X50.18
N2710 X47.64
N2720 X45.1
N2730 X42.56
N2740 X40.02
N2750 Y7.
N2760 Y12.055
N2770 X45.1
N2780 X50.18
N2790 Y9.54
N2800 Y7.
N2810 X45.1 Y17.16
N2820 Y24.755
N2830 X32.4 Y9.54
N2840 X29.86 Y12.055
N2850 X27.32 Y9.54
N2860 Y7.
N2870 X73.04 Y5.705
N2880 X7. Y78.12
N2890 G80
(-->>)
N2900 G0
(--<<)
N2910 M5
N2920 G91 G30 Z0.
N2930 G30 X0. Y0.
N2940 M30
%
