%
(2022-02-03 21:51)
(Linuxcnc)
( Tool 21 | 0.8 DRILL | H0 )
( Tool 13 | 0.3 30deg 1F | H0 )
N100 G21
N110 G0 G17 G40 G49 G80 G90
/ N120 G91 G30 Z0.
/ N130 G30 X0. Y0.
/ N140 G92 X0. Y0. Z0.
N150 G64 P.01
N160 T13 M6
N170 G0 G90 X98.941 Y20.748 S20000 M3
N180 G43 H0 Z2.
N190 G1 Z-.1 F1800.
N200 Y18.958 F1000.
N210 G3 X99.151 Y18.748 I.21 J0.
N220 G1 X100.268
N230 G3 X100.478 Y18.958 I0. J.21
N240 G1 Y20.748
N250 G3 X100.268 Y20.958 I-.21 J0.
N260 G1 X99.151
N270 G3 X98.941 Y20.748 I0. J-.21
N280 G1 Y20.233
N290 Y19.748
N300 G0 Z2.
N310 X100.769 Y16.582
N320 G1 Z-.1 F1800.
N330 Y8.123 F1000.
N340 G3 X100.391 Y7.109 I1.227 J-1.036
N350 X100.934 Y5.678 I1.921 J-.09
N360 X103.527 Y5.661 I1.305 J1.295
N370 X104.08 Y6.794 I-1.3 J1.336
N380 X103.839 Y7.938 I-2.147 J.144
N390 G2 X103.748 Y8.184 I.159 J.199
N400 G1 X103.734 Y9.086
N410 G2 X103.717 Y21.975 I4936.032 J13.084
N420 G3 X104.443 Y22.729 I-18.857 J18.905
N430 X104.7 Y23.273 I-.742 J.682
N440 X103.963 Y24.624 I-1.141 J.254
N450 X103.549 Y24.738 I-1.313 J-3.97
N460 X102.925 Y24.58 I.236 J-2.24
N470 X102.507 Y24.226 I1.362 J-2.035
N480 X100.831 Y22.556 I42.312 J-44.157
N490 X100.769 Y22.408 I.148 J-.148
N500 G1 Y19.034
N510 Y18.437
N520 X99.327
N530 X98.929 Y18.835
N540 Y20.748
N550 G3 X98.719 Y20.958 I-.21 J0.
N560 G1 X97.855
N570 G3 X97.645 Y20.748 I0. J-.21
N580 G1 Y18.009
N590 X99.01 Y16.644
N600 G3 X99.159 Y16.582 I.149 J.148
N610 G1 X100.769
N620 Y15.582
N630 G0 Z2.
N640 X95.371 Y20.958
N650 G1 Z-.1 F1800.
N660 G3 X94.969 Y21.134 I-.836 J-1.355 F1000.
N670 G2 X94.588 Y21.475 I1.069 J1.58
N680 G3 X94.567 Y27.055 I-824.603 J-.343
N690 X94.516 Y27.68 I-4.011 J-.013
N700 X94.34 Y28.006 I-.745 J-.191
N710 X93.326 Y28.535 I-1.017 J-.714
N720 X92.174 Y27.628 I.081 J-1.289
N730 X92.145 Y26.848 I5.826 J-.608
N740 X92.16 Y20.836 I183.757 J-2.549
N750 X92.237 Y20.467 I.68 J-.05
N760 X92.562 Y20.022 I1.519 J.769
N770 X93.15 Y19.418 I24.931 J23.672
N780 G1 Y17.961
N790 Y16.505
N800 G3 X90.115 Y13.431 I367.039 J-365.32
N810 X89.566 Y12.803 I5.225 J-5.127
N820 X89.348 Y12.136 I.804 J-.632
N830 X90.244 Y10.694 I1.465 J-.089
N840 X91.562 Y10.776 I.579 J1.333
N850 X92.105 Y11.267 I-2.904 J3.757
N860 X95.371 Y14.559 I-89.309 J91.873
N870 X95.918 Y15.175 I-4.639 J4.67
N880 X96.081 Y15.701 I-1.087 J.625
N890 X96.104 Y16.491 I-15.131 J.84
N900 G1 X97.564 Y17.948
N910 G3 X97.626 Y18.096 I-.148 J.148
N920 G1 Y20.748
N930 G3 X97.416 Y20.958 I-.21 J0.
N940 G1 X96.611
N950 X95.371
N960 G3 X94.969 Y21.134 I-.836 J-1.355
N970 G2 X94.588 Y21.475 I1.069 J1.58
N980 G1 Y21.523
N990 G0 Z2.
N1000 X95.332 Y22.066
N1010 G1 Z-.1 F1800.
N1020 X97.401 F1000.
N1030 G3 X97.611 Y22.276 I0. J.21
N1040 G1 Y25.106
N1050 X97.129 Y25.588
N1060 Y27.32
N1070 G3 X94.671 I-1.229 J0.
N1080 G1 Y26.485
N1090 Y22.276
N1100 G3 X94.881 Y22.066 I.21 J0.
N1110 G1 X95.332
N1120 X96.332
N1130 G0 Z2.
N1140 X97.621 Y22.748
N1150 G1 Z-.1 F1800.
N1160 Y22.276 F1000.
N1170 G3 X97.831 Y22.066 I.21 J0.
N1180 G1 X98.695
N1190 G3 X98.905 Y22.276 I0. J.21
N1200 G1 Y22.748
N1210 Y24.354
N1220 X99.588 Y25.038
N1230 G3 X99.65 Y25.187 I-.148 J.149
N1240 G1 Y27.32
N1250 G3 X97.23 I-1.21 J0.
N1260 G1 Y25.645
N1270 G3 X97.292 Y25.496 I.21 J0.
N1280 G1 X97.621 Y25.168
N1290 Y22.276
N1300 G3 X97.831 Y22.066 I.21 J0.
N1310 G1 X98.028
N1320 G0 Z2.
N1330 X105.693 Y20.868
N1340 G1 Z-.1 F1800.
N1350 G3 X104.876 Y19.983 I.437 J-1.224 F1000.
N1360 X105.383 Y18.688 I1.135 J-.302
N1370 X105.85 Y18.495 I.629 J.858
N1380 X106.798 Y18.474 I.646 J7.95
N1390 X107.374 Y17.898 I77.671 J77.095
N1400 X107.394 Y15.721 I62.732 J-.523
N1410 X107.644 Y15.126 I.967 J.057
N1420 X109.092 Y13.676 I17.514 J16.039
N1430 X109.456 Y13.463 I.595 J.598
N1440 X111.069 Y14.472 I.394 J1.164
N1450 X110.955 Y15.147 I-1.446 J.103
N1460 X110.628 Y15.581 I-1.53 J-.814
N1470 X109.826 Y16.4 I-42.798 J-41.111
N1480 X109.812 Y18.375 I-42.244 J.703
N1490 X109.561 Y19.128 I-1.375 J-.041
N1500 X108.884 Y19.856 I-5.143 J-4.103
N1510 X108.029 Y20.683 I-9.903 J-9.384
N1520 X107.316 Y20.914 I-.658 J-.812
N1530 X105.857 Y20.89 I-.42 J-18.688
N1540 G1 X105.693 Y20.868
N1550 G3 X104.964 Y20.217 I.442 J-1.23
N1560 G0 Z2.
N1570 X104.874 Y17.471
N1580 G1 Z-.1 F1800.
N1590 G3 X104.839 Y16.807 I3.962 J-.544 F1000.
N1600 X104.854 Y14.503 I43.821 J-.862
N1610 G1 X104.876 Y14.287
N1620 G3 X106.169 Y13.413 I1.158 J.321
N1630 X107.232 Y14.271 I-.129 J1.247
N1640 X107.27 Y14.852 I-2.902 J.482
N1650 X107.245 Y17.371 I-31.474 J.954
N1660 G1 X107.224 Y17.522
N1670 G3 X106.542 Y18.263 I-1.288 J-.5
N1680 X105.57 I-.486 J-1.001
N1690 X104.874 Y17.471 I.542 J-1.178
N1700 X104.839 Y16.807 I3.962 J-.544
N1710 G1 X104.837 Y16.473
N1720 G0 Z2.
N1730 X105.698 Y25.928
N1740 G1 Z-.1 F1800.
N1750 G3 X104.964 Y25.261 I.452 J-1.235 F1000.
N1760 X105.17 Y23.903 I1.108 J-.527
N1770 X105.728 Y23.569 I.894 J.864
N1780 X106.388 Y23.534 I.542 J3.892
N1790 X108.694 Y23.548 I.882 J44.801
N1800 G1 X108.915 Y23.569
N1810 G3 X109.792 Y24.862 I-.321 J1.161
N1820 X108.598 Y25.966 I-1.194 J-.094
N1830 X106.006 Y25.951 I-.993 J-50.681
N1840 G1 X105.698 Y25.928
N1850 G3 X105.088 Y25.469 I.49 J-1.287
N1860 G1 X104.972 Y25.274
N1870 G0 Z2.
N1880 X111.96 Y34.651
N1890 G1 Z-.1 F1800.
N1900 Y38.597 F1000.
N1910 G3 X111.75 Y38.807 I-.21 J0.
N1920 G1 X110.685
N1930 X109.828
N1940 G3 X109.807 Y40.014 I-73.669 J-.705
N1950 X109.757 Y40.379 I-1.431 J-.009
N1960 X108.78 Y41.22 I-1.239 J-.451
N1970 X107.891 Y41.001 I-.18 J-1.179
N1980 X107.441 Y40.411 I.819 J-1.092
N1990 X107.379 Y39.826 I1.998 J-.507
N2000 X107.374 Y34.651 I528.777 J-3.076
N2010 X107.584 Y34.441 I.21 J0.
N2020 G1 X111.75
N2030 G3 X111.96 Y34.651 I0. J.21
N2040 G1 Y35.651
N2050 G0 Z2.
N2060 X114.036 Y38.807
N2070 G1 Z-.1 F1800.
N2080 X112.817 F1000.
N2090 G3 X112.607 Y38.597 I0. J-.21
N2100 G1 Y37.479
N2110 Y36.362
N2120 G3 X112.817 Y36.152 I.21 J0.
N2130 G1 X113.426
N2140 X114.036
N2150 G3 X114.246 Y36.362 I0. J.21
N2160 G1 Y37.479
N2170 Y38.597
N2180 G3 X114.036 Y38.807 I-.21 J0.
N2190 G1 X113.426
N2200 X113.036
N2210 G0 Z2.
N2220 X116.418
N2230 G1 Z-.1 F1800.
N2240 X115.103 F1000.
N2250 G3 X114.893 Y38.597 I0. J-.21
N2260 G1 Y36.134
N2270 Y33.88
N2280 X88.534
N2290 G3 X85.464 Y36.928 I-255.225 J-254.038
N2300 X85.02 Y37.289 I-2.299 J-2.373
N2310 X84.45 Y37.418 I-.544 J-1.082
N2320 X77.36 Y37.436 I-4.511 J-388.7
N2330 X76.486 Y38.294 I-120.78 J-122.181
N2340 X75.639 Y38.681 I-.945 J-.95
N2350 X74.179 Y38.699 I-.895 J-12.854
N2360 X72.852 Y38.671 I-.348 J-15.048
N2370 X72.351 Y38.467 I.085 J-.924
N2380 X72.355 Y36.472 I.658 J-.996
N2390 X72.829 Y36.278 I.586 J.758
N2400 X74.005 Y36.254 I.818 J10.95
N2410 G1 X75.047
N2420 G3 X76.122 Y35.222 I18.568 J18.282
N2430 X76.598 Y35.02 I.55 J.635
N2440 X78.094 Y34.986 I1.121 J16.142
N2450 X83.938 Y34.985 I4.053 J6672.284
N2460 G2 X86.73 Y32.167 I-210.857 J-211.682
N2470 X86.897 Y31.855 I-.312 J-.368
N2480 G3 X87.756 Y31.003 I1.526 J.68
N2490 G1 X87.979 Y30.967
N2500 G3 X89.909 Y30.925 I1.537 J26.369
N2510 X107.119 Y30.919 I10.778 J6960.495
N2520 X107.14 Y29.727 I19.932 J-.254
N2530 X107.27 Y29.184 I1.661 J.111
N2540 X108.471 Y28.383 I1.348 J.72
N2550 X109.956 Y29.291 I.1 J1.505
N2560 X110.049 Y29.627 I-.828 J.408
N2570 X110.082 Y30.919 I-21.91 J1.206
N2580 G1 X112.512
N2590 X115.072
N2600 G3 X116.08 Y30.54 I1.033 J1.217
N2610 X117.648 Y31.223 I.078 J1.963
N2620 X117.999 Y31.893 I-1.759 J1.347
N2630 X118.06 Y32.657 I-3.568 J.672
N2640 X118.064 Y38.354 I-328.988 J3.082
N2650 X118.026 Y38.618 I-1.093 J-.024
N2660 G1 X117.933 Y38.738
N2670 G3 X117.711 Y38.789 I-.193 J-.327
N2680 X115.418 Y38.807 I-1.638 J-64.047
N2690 G0 Z2.
N2700 X115.671 Y45.366
N2710 G1 Z-.1 F1800.
N2720 X113.87 Y47.167 F1000.
N2730 Y50.18
N2740 G3 X110.95 I-1.46 J0.
N2750 G1 Y42.456
N2760 G3 X111.16 Y42.246 I.21 J0.
N2770 G1 X115.523
N2780 G3 X115.733 Y42.456 I0. J.21
N2790 G1 Y45.218
N2800 G3 X115.671 Y45.366 I-.21 J0.
N2810 G1 X114.964 Y46.073
N2820 G0 Z2.
N2830 X107.414 Y53.028
N2840 G1 Z-.1 F1800.
N2850 X107.383 Y52.278 F1000.
N2860 G3 X107.392 Y47.657 I154.018 J-2.016
N2870 G1 X107.413 Y47.311
N2880 G3 X108.952 Y46.482 I1.168 J.326
N2890 X109.772 Y47.293 I-.374 J1.199
N2900 X109.805 Y47.966 I-4.22 J.54
N2910 X109.784 Y52.887 I-115.099 J1.981
N2920 G1 X109.765 Y53.077
N2930 G3 X109.084 Y53.822 I-1.289 J-.495
N2940 X108.112 Y53.824 I-.488 J-1.006
N2950 X107.414 Y53.028 I.543 J-1.181
N2960 X107.383 Y52.278 I5.38 J-.594
N2970 G1 X107.381 Y52.029
N2980 G0 Z2.
N2990 X104.874 Y55.571
N3000 G1 Z-.1 F1800.
N3010 G3 X104.839 Y54.907 I3.961 J-.544 F1000.
N3020 X104.854 Y52.603 I43.819 J-.862
N3030 G1 X104.876 Y52.387
N3040 G3 X106.169 Y51.513 I1.158 J.321
N3050 X107.232 Y52.371 I-.129 J1.247
N3060 X107.27 Y52.953 I-2.904 J.482
N3070 X107.245 Y55.471 I-31.461 J.953
N3080 G1 X107.224 Y55.622
N3090 G3 X106.542 Y56.363 I-1.287 J-.499
N3100 X105.57 I-.486 J-1.001
N3110 X104.874 Y55.571 I.542 J-1.178
N3120 X104.839 Y54.907 I3.961 J-.544
N3130 G1 X104.837 Y54.572
N3140 G0 Z2.
N3150 X99.794 Y58.104
N3160 G1 Z-.1 F1800.
N3170 X99.768 Y57.229 F1000.
N3180 G3 X99.765 Y48.087 I567.416 J-4.761
N3190 X99.795 Y46.823 I20.307 J-.153
N3200 X100.036 Y46.4 I.957 J.266
N3210 X101.316 Y45.069 I18.718 J16.724
N3220 X104.835 Y41.546 I3844.063 J3835.145
N3230 X104.843 Y36.451 I768.759 J-1.353
N3240 X104.892 Y35.841 I3.918 J.01
N3250 X105.054 Y35.522 I.775 J.194
N3260 X106.524 Y35.09 I.986 J.636
N3270 X107.232 Y35.854 I-.549 J1.219
N3280 X107.26 Y36.59 I-5.225 J.569
N3290 X107.275 Y41.866 I-233.548 J3.297
N3300 X107.218 Y42.456 I-2.267 J.077
N3310 X107.052 Y42.746 I-.835 J-.285
N3320 X106.16 Y43.699 I-9.577 J-8.07
N3330 X102.206 Y47.666 I-2928.324 J-2914.556
N3340 X102.197 Y56.944 I-2075.246 J2.502
N3350 G1 X102.181 Y57.941
N3360 G3 X101.169 Y58.973 I-1.281 J-.245
N3370 X99.794 Y58.104 I-.184 J-1.232
N3380 X99.768 Y57.229 I7.423 J-.655
N3390 G1 X99.767 Y57.105
N3400 G0 Z2.
N3410 X97.418 Y57.081
N3420 G1 Z-.1 F1800.
N3430 G3 X98.685 Y56.563 I1.038 J.73 F1000.
N3440 X99.228 Y56.851 I-.223 J1.076
N3450 X99.47 Y58.411 I-.832 J.927
N3460 X97.501 Y58.544 I-1.032 J-.639
N3470 X97.96 Y56.642 I.912 J-.786
N3480 G1 X98.197 Y56.568
N3490 X98.242 Y56.563
N3500 G0 Z2.
N3510 X96.695 Y61.442
N3520 G1 Z-.1 F1800.
N3530 G3 X96.278 Y61.114 I1.097 J-1.826 F1000.
N3540 X95.023 Y59.82 I11.321 J-12.23
N3550 X94.687 Y59.283 I1.31 J-1.193
N3560 X94.69 Y57.585 I35.746 J-.797
N3570 X94.814 Y57.18 I.896 J.055
N3580 X96.04 Y56.551 I1.089 J.611
N3590 X97.114 Y57.75 I-.159 J1.223
N3600 X97.126 Y58.483 I-13.649 J.572
N3610 X97.728 Y59.114 I-198.048 J189.597
N3620 X98.508 Y59.122 I.193 J18.161
N3630 X99.105 Y59.328 I-.031 J1.062
N3640 X99.62 Y60.567 I-.643 J.993
N3650 X98.631 Y61.536 I-1.19 J-.225
N3660 X97.877 Y61.572 I-.596 J-4.576
N3670 X96.903 Y61.497 I.039 J-6.841
N3680 X96.549 Y61.346 I.048 J-.604
N3690 X95.94 Y60.789 I4.35 J-5.371
N3700 G0 Z2.
N3710 X92.176 Y58.108
N3720 G1 Z-.1 F1800.
N3730 G3 X92.14 Y57.463 I3.729 J-.533 F1000.
N3740 X92.151 Y55.166 I45.083 J-.928
N3750 X92.264 Y54.713 I.755 J-.052
N3760 X92.795 Y54.175 I1.248 J.699
N3770 X93.034 Y54.074 I.542 J.954
N3780 X93.674 Y54.039 I.523 J3.675
N3790 X95.973 Y54.052 I.89 J45.527
N3800 X96.452 Y54.17 I.045 J.847
N3810 X96.819 Y56.033 I-.565 J1.079
N3820 X96.31 Y56.4 I-1.196 J-1.123
N3830 X95.797 Y56.47 I-.464 J-1.467
N3840 X94.586 Y56.489 I-2.393 J-118.756
N3850 X94.559 Y57.946 I-25.134 J.27
N3860 X93.548 Y58.973 I-1.279 J-.248
N3870 X92.176 Y58.108 I-.181 J-1.234
N3880 X92.14 Y57.463 I3.729 J-.533
N3890 G1 X92.137 Y57.11
N3900 G0 Z2.
N3910 X87.91 Y53.889
N3920 G1 Z-.1 F1800.
N3930 G3 X87.174 Y53.215 I.474 J-1.256 F1000.
N3940 X87.598 Y51.71 I1.055 J-.515
N3950 X88.094 Y51.524 I.52 J.633
N3960 X89.698 Y51.493 I1.173 J19.28
N3970 G1 X91.15
N3980 X94.099
N3990 G3 X94.674 Y50.919 I167.522 J167.331
N4000 X94.693 Y48.5 I79.842 J-.587
N4010 X94.852 Y48.006 I1.028 J.057
N4020 G1 X94.935 Y47.909
N4030 G3 X97.824 Y44.978 I107.153 J102.74
N4040 X102.293 Y40.504 I3380.326 J3372.477
N4050 X102.302 Y36.361 I458.546 J-1.093
N4060 X102.355 Y35.827 I2.958 J.02
N4070 X103.054 Y35.073 I1.265 J.473
N4080 X104.2 Y35.211 I.448 J1.112
N4090 X104.692 Y35.853 I-.796 J1.119
N4100 X104.721 Y36.527 I-4.416 J.53
N4110 X104.734 Y40.933 I-161.054 J2.648
N4120 X104.694 Y41.369 I-2.327 J.01
N4130 X104.546 Y41.653 I-.707 J-.188
N4140 X103.722 Y42.549 I-7.991 J-6.528
N4150 X97.126 Y49.162 I-1290.657 J-1280.725
N4160 X97.114 Y51.384 I-56.655 J.814
N4170 X96.87 Y52.162 I-1.464 J-.031
N4180 X96.374 Y52.708 I-3.519 J-2.705
N4190 X95.451 Y53.603 I-28.162 J-28.084
N4200 X94.636 Y53.928 I-.776 J-.763
N4210 X88.237 Y53.91 I-2.49 J-250.732
N4220 X87.91 Y53.889 I-.055 J-1.737
N4230 X87.184 Y53.232 I.464 J-1.242
N4240 G0 Z2.
N4250 X92.348 Y50.846
N4260 G1 Z-.1 F1800.
N4270 G3 X92.159 Y50.355 I.747 J-.57 F1000.
N4280 X92.135 Y48.899 I15.322 J-.983
N4290 X92.153 Y47.504 I20.222 J-.434
N4300 X92.312 Y46.99 I1.074 J.051
N4310 X92.999 Y46.27 I7.486 J6.457
N4320 X99.908 Y39.368 I470.475 J464.041
N4330 X100.337 Y38.967 I3.033 J2.817
N4340 X102.131 Y39.639 I.622 J1.068
N4350 X102.102 Y40.469 I-1.27 J.371
N4360 X101.755 Y40.934 I-1.636 J-.858
N4370 X99.603 Y43.126 I-53.463 J-50.33
N4380 G1 X98.231 Y44.499
N4390 X94.588 Y48.146
N4400 G3 X94.562 Y50.238 I-97.569 J-.156
N4410 X94.344 Y50.861 I-.975 J.008
N4420 X93.327 Y51.395 I-1.019 J-.706
N4430 X92.201 Y50.57 I.063 J-1.267
N4440 X92.139 Y49.888 I2.186 J-.544
N4450 G0 Z2.
N4460 X84.553 Y60.649
N4470 G1 Z-.1 F1800.
N4480 X84.523 Y59.903 F1000.
N4490 G3 X84.531 Y55.284 I153.554 J-2.025
N4500 G1 X84.552 Y54.931
N4510 G3 X86.091 Y54.102 I1.168 J.325
N4520 X86.912 Y54.913 I-.374 J1.199
N4530 X86.945 Y55.568 I-3.982 J.527
N4540 X86.925 Y60.495 I-116.363 J1.991
N4550 G1 X86.905 Y60.697
N4560 G3 X86.223 Y61.443 I-1.289 J-.495
N4570 X85.252 Y61.444 I-.487 J-1.
N4580 X84.553 Y60.649 I.542 J-1.18
N4590 X84.523 Y59.903 I5.319 J-.591
N4600 G1 X84.521 Y59.65
N4610 G0 Z2.
N4620 X82.18 Y58.445
N4630 G1 Z-.1 F1800.
N4640 G3 X82. Y57.952 I.635 J-.511 F1000.
N4650 X81.974 Y56.282 I21.454 J-1.167
N4660 X81.99 Y53.314 I214.469 J-.34
N4670 X82.154 Y52.701 I1.095 J-.035
N4680 G1 X82.235 Y52.61
N4690 X86.41 Y48.395
N4700 X97.214 Y37.584
N4710 G3 X97.227 Y36.095 I42.961 J-.364
N4720 X97.434 Y35.524 I.969 J.027
N4730 X98.906 Y35.09 I.989 J.643
N4740 X99.61 Y35.85 I-.53 J1.196
N4750 X99.649 Y36.408 I-2.774 J.474
N4760 X99.657 Y38.005 I-30.838 J.967
N4770 X99.612 Y38.491 I-4.097 J-.14
N4780 X99.276 Y38.944 I-1.564 J-.807
N4790 X97.164 Y41.112 I-49.793 J-46.386
N4800 G1 X92.17 Y46.113
N4810 X84.426 Y53.862
N4820 G3 X84.416 Y57.46 I-315.239 J.953
N4830 G1 X84.4 Y57.943
N4840 G3 X83.462 Y58.959 I-1.282 J-.242
N4850 X82.18 Y58.445 I-.263 J-1.2
N4860 X82. Y57.952 I.635 J-.511
N4870 X81.98 Y57.485 I5.933 J-.485
N4880 G0 Z2.
N4890 X79.638 Y57.081
N4900 G1 Z-.1 F1800.
N4910 G3 X80.905 Y56.563 I1.039 J.73 F1000.
N4920 X81.448 Y56.851 I-.222 J1.074
N4930 X81.689 Y58.411 I-.833 J.928
N4940 X79.721 Y58.544 I-1.031 J-.639
N4950 X80.181 Y56.642 I.912 J-.786
N4960 G1 X80.418 Y56.568
N4970 X80.462 Y56.563
N4980 G0 Z2.
N4990 X77.099 Y57.081
N5000 G1 Z-.1 F1800.
N5010 G3 X78.365 Y56.563 I1.039 J.732 F1000.
N5020 X78.908 Y56.851 I-.224 J1.076
N5030 X79.15 Y58.411 I-.832 J.928
N5040 X77.042 Y58.34 I-1.034 J-.641
N5050 X77.641 Y56.641 I1.049 J-.585
N5060 G1 X77.878 Y56.567
N5070 X77.923 Y56.562
N5080 G0 Z2.
N5090 X74.559 Y57.081
N5100 G1 Z-.1 F1800.
N5110 G3 X75.824 Y56.562 I1.037 J.727 F1000.
N5120 X76.368 Y56.851 I-.223 J1.077
N5130 X76.61 Y58.41 I-.832 J.928
N5140 X74.641 Y58.544 I-1.032 J-.638
N5150 X75.1 Y56.642 I.913 J-.786
N5160 G1 X75.336 Y56.568
N5170 X75.383 Y56.563
N5180 G0 Z2.
N5190 X72.682 Y61.516
N5200 G1 Z-.1 F1800.
N5210 G3 X71.92 Y60.831 I.532 J-1.358 F1000.
N5220 X71.843 Y60.507 I.786 J-.359
N5230 X71.814 Y58.909 I19.341 J-1.146
N5240 X71.83 Y55.249 I293.491 J-.547
N5250 X71.921 Y54.738 I1.564 J.016
N5260 X72.083 Y54.497 I.855 J.4
N5270 X73.531 Y53.048 I17.264 J15.793
N5280 X74.055 Y52.797 I.642 J.67
N5290 X75.327 Y52.764 I.94 J11.773
N5300 X78.477 I2.089 J3937.643
N5310 G1 X86.576 Y44.666
N5320 X94.674 Y36.567
N5330 G3 X94.714 Y35.892 I4.004 J-.102
N5340 X95.433 Y35.076 I1.26 J.386
N5350 X96.774 Y35.371 I.454 J1.134
N5360 X97.066 Y35.843 I-.954 J.916
N5370 X97.129 Y36.314 I-1.556 J.449
N5380 X97.047 Y37.421 I-5.517 J.149
N5390 G1 X96.978 Y37.651
N5400 X96.462 Y38.212
N5410 G3 X90.68 Y44.059 I-430.309 J-419.674
N5420 X80.649 Y54.042 I-954.48 J-949.087
N5430 X79.579 Y55.057 I-13.467 J-13.122
N5440 X79.112 Y55.186 I-.57 J-1.153
N5450 X77.452 Y55.216 I-1.205 J-20.439
N5460 X74.816 Y55.217 I-1.613 J-3664.367
N5470 G1 X74.541 Y55.491
N5480 X74.267 Y55.766
N5490 Y59.114
N5500 X82.623 Y59.121
N5510 G3 X83.5 Y59.165 I.026 J8.297
N5520 X83.872 Y59.334 I-.086 J.683
N5530 X84.379 Y60.568 I-.652 J.989
N5540 X83.386 Y61.539 I-1.194 J-.227
N5550 X81.981 Y61.558 I-.969 J-19.946
N5560 X73.706 Y61.537 I-2.111 J-798.325
N5570 G1 X72.682 Y61.516
N5580 G3 X71.942 Y60.869 I.521 J-1.342
N5590 G0 Z2.
N5600 X69.315 Y58.106
N5610 G1 Z-.1 F1800.
N5620 X69.284 Y57.355 F1000.
N5630 G3 X69.293 Y52.734 I154.115 J-2.013
N5640 G1 X69.314 Y52.391
N5650 G3 X70.124 Y51.554 I1.152 J.304
N5660 X71.594 Y52.19 I.344 J1.222
N5670 X71.685 Y52.472 I-.365 J.273
N5680 X71.723 Y55.022 I-65.042 J2.241
N5690 X71.715 Y57.655 I-121.585 J.967
N5700 X71.205 Y58.745 I-1.268 J.071
N5710 X70.002 Y58.88 I-.711 J-.916
N5720 X69.315 Y58.106 I.503 J-1.139
N5730 X69.284 Y57.355 I5.399 J-.594
N5740 G1 X69.283 Y57.107
N5750 G0 Z2.
N5760 X64.401 Y58.446
N5770 G1 Z-.1 F1800.
N5780 G3 X64.237 Y58.071 I.608 J-.49 F1000.
N5790 X64.196 Y56.931 I9.199 J-.904
N5800 X64.209 Y51.498 I452.555 J-1.618
N5810 X64.242 Y51.114 I2.949 J.058
N5820 X64.459 Y50.698 I.772 J.139
N5830 X68.407 Y46.743 I113.415 J109.273
N5840 X68.771 Y46.491 I.705 J.631
N5850 X69.429 Y46.428 I.566 J2.427
N5860 X74.006 Y46.414 I3.018 J236.17
N5870 G1 X78.859
N5880 G3 X89.865 Y35.444 I1741.403 J1736.255
N5890 G1 X90.166 Y35.162
N5900 G3 X90.69 Y35.002 I.546 J.851
N5910 X93.503 Y35.006 I1.338 J51.424
N5920 X94.029 Y35.201 I-.041 J.918
N5930 X94.042 Y37.193 I-.661 J1.
N5940 X93.578 Y37.398 I-.601 J-.737
N5950 X92.396 Y37.43 I-.882 J-10.474
N5960 G1 X91.327 Y37.438
N5970 G3 X81.043 Y47.698 I-4227.91 J-4227.461
N5980 X80.041 Y48.635 I-13.468 J-13.403
N5990 X79.537 Y48.841 I-.502 J-.506
N6000 G1 X79.378 Y48.848
N6010 X69.737 Y48.867
N6020 G2 X66.646 Y51.956 I4959.389 J4965.259
N6030 G3 X66.637 Y57.301 I-703.21 J1.429
N6040 G1 X66.621 Y57.942
N6050 G3 X65.682 Y58.959 I-1.283 J-.242
N6060 X64.401 Y58.446 I-.263 J-1.199
N6070 X64.237 Y58.071 I.608 J-.49
N6080 X64.205 Y57.486 I4.615 J-.541
N6090 G0 Z2.
N6100 X54.23 Y51.45
N6110 G1 Z-.1 F1800.
N6120 G3 I-1.51 J0. F1000.
N6130 X53.911 Y52.378 I-1.51 J0.
N6140 G0 Z2.
N6150 X54.902 Y43.736
N6160 G1 Z-.1 F1800.
N6170 G3 X54.162 Y43.06 I.459 J-1.245 F1000.
N6180 X54.372 Y41.704 I1.107 J-.523
N6190 X54.932 Y41.372 I.895 J.872
N6200 X55.756 Y41.345 I.629 J6.533
N6210 X62.931 Y41.357 I3.111 J275.454
N6220 G1 X63.191 Y41.373
N6230 G3 X64.07 Y42.668 I-.32 J1.162
N6240 X63.061 Y43.76 I-1.193 J-.09
N6250 X61.781 Y43.779 I-.892 J-16.514
N6260 X55.441 Y43.754 I-1.433 J-433.078
N6270 G1 X54.902 Y43.736
N6280 G3 X54.286 Y43.27 I.506 J-1.308
N6290 G1 X54.175 Y43.081
N6300 G0 Z2.
N6310 X59.153 Y40.328
N6320 G1 Z-.1 F1800.
N6330 X59.123 Y39.582 F1000.
N6340 G3 X59.131 Y34.965 I153.471 J-2.024
N6350 G1 X59.152 Y34.61
N6360 G3 X60.014 Y33.754 I1.301 J.447
N6370 X60.67 Y33.719 I.536 J3.875
N6380 X62.976 Y33.733 I.879 J44.795
N6390 G1 X63.195 Y33.754
N6400 G3 X63.937 Y35.515 I-.34 J1.18
N6410 X63.289 Y36.08 I-1.159 J-.675
N6420 X62.774 Y36.15 I-.464 J-1.476
N6430 X61.567 Y36.168 I-2.947 J-160.945
N6440 X61.546 Y39.91 I-391.758 J-.33
N6450 X61.49 Y40.405 I-2.451 J-.028
N6460 X60.52 Y41.22 I-1.243 J-.496
N6470 X59.636 Y40.999 I-.178 J-1.165
N6480 X59.153 Y40.328 I.732 J-1.035
N6490 X59.123 Y39.582 I5.317 J-.591
N6500 G1 X59.121 Y39.329
N6510 G0 Z2.
N6520 X62.522 Y41.196
N6530 G1 Z-.1 F1800.
N6540 G3 X61.781 Y40.519 I.46 J-1.248 F1000.
N6550 X61.991 Y39.163 I1.104 J-.523
N6560 X62.552 Y38.832 I.894 J.874
N6570 X63.551 Y38.809 I.72 J9.801
N6580 X77.674 Y38.813 I6.783 J1024.59
N6590 X78.431 Y38.834 I.178 J7.485
N6600 X79.31 Y40.128 I-.319 J1.162
N6610 X78.299 Y41.22 I-1.194 J-.091
N6620 X76.7 Y41.237 I-1.078 J-26.156
N6630 X63.356 Y41.212 I-3.523 J-1629.176
N6640 G1 X62.522 Y41.196
N6650 G3 X61.905 Y40.729 I.51 J-1.316
N6660 G1 X61.794 Y40.542
N6670 G0 Z2.
N6680 X62.513 Y38.649
N6690 G1 Z-.1 F1800.
N6700 G3 X61.696 Y37.764 I.436 J-1.223 F1000.
N6710 X62.202 Y36.468 I1.136 J-.303
N6720 X62.671 Y36.274 I.633 J.868
N6730 X63.617 Y36.254 I.645 J7.973
N6740 X65.845 Y34.063 I82.591 J81.765
N6750 X66.358 Y33.756 I.858 J.852
N6760 X67.137 Y33.726 I.61 J5.832
N6770 X73.15 Y33.738 I2.66 J183.683
N6780 G1 X73.353 Y33.753
N6790 G3 X74.097 Y35.515 I-.333 J1.179
N6800 X73.455 Y36.081 I-1.236 J-.756
N6810 X72.839 Y36.146 I-.546 J-2.231
N6820 X67.196 Y36.168 I-4.087 J-321.028
N6830 X65.058 Y38.281 I-97.433 J-96.426
N6840 X64.676 Y38.574 I-1.672 J-1.783
N6850 X64.14 Y38.693 I-.502 J-.993
N6860 X62.686 Y38.672 I-.455 J-18.499
N6870 G1 X62.513 Y38.649
N6880 G3 X61.783 Y37.998 I.44 J-1.229
N6890 G0 Z2.
N6900 X67.598 Y38.653
N6910 G1 Z-.1 F1800.
N6920 G3 X66.864 Y37.987 I.45 J-1.233 F1000.
N6930 X67.069 Y36.629 I1.108 J-.527
N6940 X67.629 Y36.295 I.893 J.862
N6950 X68.289 Y36.26 I.541 J3.904
N6960 X70.596 Y36.274 I.88 J44.85
N6970 G1 X70.815 Y36.295
N6980 G3 X71.692 Y37.588 I-.321 J1.161
N6990 X70.683 Y38.68 I-1.196 J-.093
N7000 X69.712 Y38.701 I-.684 J-9.403
N7010 X67.861 Y38.674 I-.294 J-43.304
N7020 G1 X67.598 Y38.653
N7030 G3 X66.871 Y37.999 I.442 J-1.223
N7040 G0 Z2.
N7050 X84.41 Y32.4
N7060 G1 Z-.1 F1800.
N7070 G3 X83.2 Y33.61 I-1.21 J0. F1000.
N7080 G1 X70.5
N7090 G3 Y31.19 I0. J-1.21
N7100 G1 X83.2
N7110 G3 X84.02 Y33.29 I0. J1.21
N7120 G0 Z2.
N7130 X80.471 Y25.955
N7140 G1 Z-.1 F1800.
N7150 G3 X79.475 Y25.03 I.173 J-1.186 F1000.
N7160 X79.77 Y23.885 I1.221 J-.296
N7170 X80.305 Y23.568 I.855 J.833
N7180 X81.134 Y23.541 I.634 J6.607
N7190 X88.33 Y23.552 I3.166 J276.11
N7200 G1 X88.591 Y23.567
N7210 G3 X89.469 Y24.864 I-.322 J1.164
N7220 X88.46 Y25.953 I-1.189 J-.091
N7230 X87.004 Y25.972 I-1.019 J-22.313
N7240 X81.058 Y25.967 I-2.552 J-513.548
N7250 G1 X80.471 Y25.955
N7260 G3 X79.672 Y25.468 I.177 J-1.19
N7270 G1 X79.652 Y25.433
N7280 G0 Z2.
N7290 X77.757 Y23.413
N7300 G1 Z-.1 F1800.
N7310 G3 X77.024 Y22.747 I.45 J-1.232 F1000.
N7320 X77.23 Y21.388 I1.109 J-.527
N7330 X77.789 Y21.054 I.895 J.864
N7340 X78.453 Y21.019 I.543 J3.95
N7350 X80.775 Y21.035 I.855 J44.811
N7360 X81.233 Y21.153 I.032 J.821
N7370 X81.85 Y22.107 I-.561 J1.039
N7380 X81.393 Y23.204 I-1.257 J.121
N7390 X80.657 Y23.451 I-.724 J-.936
N7400 X78.046 Y23.435 I-.983 J-51.249
N7410 G1 X77.757 Y23.413
N7420 G3 X77.031 Y22.759 I.443 J-1.221
N7430 G0 Z2.
N7440 X87.562 Y20.989
N7450 G1 Z-.1 F1800.
N7460 G3 X87.127 Y20.615 I1.614 J-2.311 F1000.
N7470 X85.892 Y19.352 I16.473 J-17.349
N7480 X85.615 Y18.921 I1.05 J-.98
N7490 X85.552 Y18.269 I2.55 J-.577
N7500 X85.53 Y12.289 I358.54 J-4.279
N7510 X72.006 Y12.262 I-1.225 J-2752.306
N7520 X71.585 Y12.229 I-.065 J-1.901
N7530 X71.051 Y11.917 I.407 J-1.309
N7540 X69.939 Y10.829 I18.717 J-20.223
N7550 G1 X68.838 Y9.725
N7560 X67.293
N7570 G3 X66.424 Y10.596 I-22.13 J-21.219
N7580 X65.653 Y10.986 I-.96 J-.941
N7590 X63.94 Y9.474 I-.235 J-1.46
N7600 X64.129 Y8.812 I1.526 J.078
N7610 X64.551 Y8.316 I3.117 J2.225
N7620 X65.62 Y7.214 I18.105 J16.493
N7630 X66.079 Y6.882 I1.247 J1.24
N7640 X66.594 Y6.785 I.54 J1.449
N7650 X69.388 Y6.77 I1.818 J81.183
N7660 X70.075 Y6.924 I-.06 J1.878
N7670 X70.543 Y7.255 I-.917 J1.793
N7680 X71.519 Y8.226 I-19.001 J20.079
N7690 G1 X72.62 Y9.33
N7700 X86.378
N7710 X86.8 Y8.907
N7720 G3 X86.815 Y6.984 I58.414 J-.497
N7730 X86.889 Y6.477 I2.519 J.104
N7740 X87.236 Y5.949 I1.055 J.316
N7750 X89.14 Y5.807 I1.034 J1.036
N7760 X89.707 Y6.634 I-.894 J1.222
N7770 G1 X89.732 Y6.828
N7780 G3 X89.736 Y9.524 I-67.307 J1.463
N7790 X89.573 Y10.239 I-1.709 J-.014
N7800 X89.235 Y10.665 I-1.684 J-.986
N7810 G2 X88.489 Y11.421 I556.813 J550.207
N7820 X88.501 Y17.611 I826.931 J1.596
N7830 G1 X88.512 Y17.817
N7840 G3 X89.572 Y18.991 I-8.709 J8.932
N7850 X89.342 Y20.711 I-1.327 J.698
N7860 X87.719 Y21.058 I-1.067 J-1.021
N7870 X87.446 Y20.904 I.206 J-.683
N7880 X86.824 Y20.316 I6.792 J-7.801
N7890 G0 Z2.
N7900 X93.342 Y10.75
N7910 G1 Z-.1 F1800.
N7920 G3 X92.15 Y9.54 I.018 J-1.21 F1000.
N7930 G1 Y7.
N7940 G3 X94.57 I1.21 J0.
N7950 G1 Y8.319
N7960 G3 X96.189 Y8.327 I.346 J102.828
N7970 X96.761 Y8.69 I-.609 J1.591
N7980 X99.346 Y11.255 I-61.333 J64.388
N7990 X99.642 Y11.89 I-.727 J.726
N8000 X99.666 Y12.883 I-9.488 J.727
N8010 X99.624 Y14.832 I-31.236 J.292
N8020 G1 X99.603 Y14.98
N8030 G3 X98.926 Y15.721 I-1.291 J-.5
N8040 X97.945 Y15.725 I-.494 J-1.007
N8050 X97.283 Y15.017 I.535 J-1.165
N8060 X97.218 Y14.464 I1.748 J-.484
N8070 X97.214 Y12.556 I185.651 J-1.377
N8080 X95.387 Y10.766 I1354.732 J-1384.838
N8090 X93.342 Y10.75 I-.397 J-76.986
N8100 G0 Z2.
N8110 X77.066 Y8.468
N8120 G1 Z-.1 F1800.
N8130 G3 X73.681 Y8.45 I-1.082 J-115.807 F1000.
N8140 X73.287 Y8.417 I.056 J-3.009
N8150 X72.825 Y8.194 I.204 J-1.011
N8160 X71.87 Y7.252 I5.582 J-6.624
N8170 G2 X71.437 Y6.645 I-43.627 J30.568
N8180 G1 X71.284 Y6.321
N8190 X71.197 Y5.974
N8200 X71.178 Y5.617
N8210 X71.228 Y5.263
N8220 X71.346 Y4.924
N8230 X71.526 Y4.615
N8240 X71.763 Y4.347
N8250 X72.046 Y4.129
N8260 X72.367 Y3.969
N8270 X72.712 Y3.876
N8280 G3 X74.523 Y4.587 I.3 J1.895
N8290 X74.871 Y5.519 I-1.355 J1.037
N8300 X80.09 Y5.526 I1.432 J934.254
N8310 X81.016 Y5.578 I-.008 J8.373
N8320 X81.681 Y5.943 I-.075 J.924
N8330 X82.062 Y7.405 I-1.012 J1.045
N8340 X81.219 Y8.364 I-1.404 J-.383
N8350 X80.581 Y8.466 I-.539 J-1.339
N8360 X76.066 I-2.417 J-890.577
N8370 G0 Z2.
N8380 X59.01 Y12.055
N8390 G1 Z-.1 F1800.
N8400 G3 I-1.21 J0. F1000.
N8410 X58.62 Y12.945 I-1.21 J0.
N8420 G0 Z2.
N8430 X51.39 Y12.055
N8440 G1 Z-.1 F1800.
N8450 G3 I-1.21 J0. F1000.
N8460 X51. Y12.945 I-1.21 J0.
N8470 G0 Z2.
N8480 X50.18 Y10.75
N8490 G1 Z-.1 F1800.
N8500 G3 Y8.33 I0. J-1.21 F1000.
N8510 G1 X52.811
N8520 X55.3 Y5.841
N8530 G3 X55.448 Y5.78 I.148 J.149
N8540 X60.629 Y5.787 I1.837 J550.344
N8550 X61.016 Y5.987 I-1.046 J2.502
N8560 X61.661 Y6.591 I-4.087 J5.009
N8570 X62.183 Y7.135 I-7.036 J7.277
N8580 X62.459 Y7.823 I-.909 J.764
N8590 X62.48 Y8.939 I-11.101 J.773
N8600 G1 Y9.891
N8610 G2 X63.165 Y10.584 I17.669 J-16.779
N8620 X63.283 Y10.637 I.155 J-.187
N8630 G3 X64.089 Y11.221 I-.408 J1.412
N8640 X64.307 Y11.687 I-1.292 J.887
N8650 G1 X64.333 Y11.882
N8660 G3 X64.335 Y14.065 I-43.589 J1.145
N8670 X64.077 Y14.823 I-1.402 J-.054
N8680 X63.554 Y15.39 I-3.691 J-2.882
N8690 X62.497 Y16.385 I-21.951 J-22.272
N8700 X61.89 Y16.696 I-1.169 J-1.531
N8710 X55.866 Y16.711 I-19.428 J-6546.564
N8720 X54.835 Y17.744 I-2008.045 J-2001.976
N8730 G1 Y21.588
N8740 Y25.429
N8750 G2 X55.867 Y26.448 I310.469 J-313.546
N8760 G1 X69.876 Y26.449
N8770 X82.895 Y26.464
N8780 G3 X84.249 Y26.511 I.099 J16.776
N8790 G1 X84.435 Y26.555
N8800 G3 X85.042 Y27.061 I-2.453 J3.558
N8810 X86.855 Y28.921 I-24.921 J26.102
N8820 X87.138 Y29.411 I-.74 J.754
N8830 X85.352 Y31.273 I-1.401 J.444
N8840 X85.022 Y31.146 I.462 J-1.697
N8850 X84.549 Y30.744 I1.469 J-2.207
N8860 X83.209 Y29.41 I123.877 J-125.75
N8870 G1 X69.914
N8880 X56.742
N8890 X56.727 Y37.761
N8900 G3 X56.377 Y38.419 I-2.12 J-.706
N8910 X54.9 Y38.9 I-1.105 J-.884
N8920 X54.434 Y38.706 I.473 J-1.797
N8930 X47.978 Y38.687 I1.502 J-1612.
N8940 X47.286 Y38.639 I-.003 J-4.927
N8950 X46.95 Y38.466 I.154 J-.712
N8960 X46.951 Y36.475 I.658 J-.995
N8970 X47.454 Y36.285 I.522 J.62
N8980 X49.086 Y36.254 I1.197 J19.937
N8990 G1 X50.733
N9000 X53.78
N9010 Y28.555
N9020 G3 X52.271 Y27.027 I57.555 J-58.323
N9030 X51.918 Y26.39 I.923 J-.928
N9040 X51.888 Y25.461 I8.242 J-.726
N9050 X51.899 Y17.146 I341.663 J-3.712
N9060 G1 X51.917 Y16.804
N9070 G3 X52.181 Y16.272 I1.195 J.261
N9080 X53.063 Y15.336 I10.989 J9.47
N9090 X54.252 Y14.149 I21.846 J20.705
N9100 X54.739 Y13.837 I1.113 J1.202
N9110 X55.339 Y13.762 I.541 J1.894
N9120 X58.092 Y13.749 I1.921 J112.209
N9130 G1 X61.003
N9140 G2 X61.4 Y13.353 I-73.471 J-74.038
N9150 G1 Y12.829
N9160 Y12.305
N9170 G3 X60.407 Y11.269 I58.587 J-57.156
N9180 X60.042 Y10.692 I1.103 J-1.102
N9190 X60.027 Y8.42 I732.668 J-5.988
N9200 G2 X59.838 Y8.228 I-116.675 J114.466
N9210 X56.345 Y8.22 I-2.289 J247.734
N9220 G1 X53.813 Y10.75
N9230 X50.18
N9240 G3 X49.29 Y10.36 I0. J-1.21
N9250 G0 Z2.
N9260 X51.39 Y7.
N9270 G1 Z-.1 F1800.
N9280 G3 X50.18 Y8.21 I-1.21 J0. F1000.
N9290 G1 X43.65 Y8.201
N9300 G3 X43.126 Y7.991 I.099 J-1.005
N9310 X42.418 Y7.31 I4.707 J-5.614
N9320 X41.55 Y6.375 I17.3 J-16.933
N9330 X41.348 Y5.994 I1.765 J-1.179
N9340 X41.344 Y4.369 I46.442 J-.917
N9350 X41.543 Y3.794 I.979 J.017
N9360 X43.549 Y3.774 I1.009 J.63
N9370 X43.753 Y4.241 I-.839 J.645
N9380 X43.789 Y5.197 I-10.442 J.879
N9390 G2 X44.337 Y5.775 I481.757 J-456.665
N9400 G1 X50.18 Y5.79
N9410 G3 X51. Y7.89 I0. J1.21
N9420 G0 Z2.
N9430 X51.39 Y4.46
N9440 G1 Z-.1 F1800.
N9450 G3 I-1.21 J0. F1000.
N9460 X51. Y5.35 I-1.21 J0.
N9470 G0 Z2.
N9480 X44.738 Y5.632
N9490 G1 Z-.1 F1800.
N9500 G3 X44.004 Y4.966 I.45 J-1.233 F1000.
N9510 X44.209 Y3.608 I1.107 J-.526
N9520 X44.768 Y3.275 I.895 J.864
N9530 X45.432 Y3.239 I.545 J3.941
N9540 X47.738 Y3.253 I.877 J44.674
N9550 G1 X47.955 Y3.274
N9560 G3 X48.832 Y4.567 I-.321 J1.162
N9570 X47.638 Y5.672 I-1.195 J-.094
N9580 X45.049 Y5.656 I-.982 J-50.129
N9590 G1 X44.738 Y5.632
N9600 G3 X44.011 Y4.979 I.444 J-1.224
N9610 G0 Z2.
N9620 X40.02 Y10.597
N9630 G1 Z-.1 F1800.
N9640 G3 X41.47 Y11.907 I0. J1.458 F1000.
N9650 X41.478 Y14.61 I-69.196 J1.547
N9660 X41.308 Y15.316 I-1.671 J-.029
N9670 X40.958 Y15.763 I-1.805 J-1.051
N9680 X39.752 Y16.943 I-34.898 J-34.451
N9690 X39.162 Y17.31 I-1.126 J-1.155
N9700 X38.607 Y17.362 I-.479 J-2.119
N9710 X31.148 Y17.33 I-2.207 J-351.152
N9720 G1 X30.728 Y17.313
N9730 G3 X30.193 Y17.011 I.425 J-1.375
N9740 X28.685 Y15.49 I19.148 J-20.489
N9750 X28.412 Y14.846 I.876 J-.751
N9760 X28.403 Y11.838 I33.073 J-1.606
N9770 X28.514 Y11.428 I1.031 J.058
N9780 X29.981 Y10.586 I1.31 J.583
N9790 X31.277 Y11.641 I-.152 J1.509
N9800 G1 X31.308 Y11.836
N9810 G3 X31.341 Y14.012 I-44.15 J1.762
N9820 G2 X31.738 Y14.411 I516.271 J-513.1
N9830 G1 X34.927
N9840 X38.117
N9850 G2 X38.54 Y13.987 I-115.812 J-115.939
N9860 G1 Y13.445
N9870 Y13.027
N9880 G3 X37.373 Y13. I-.203 J-16.426
N9890 X36.794 Y12.722 I.066 J-.88
N9900 X35.43 Y11.366 I14.373 J-15.825
N9910 X35.259 Y10.892 I.644 J-.5
N9920 X35.239 Y9.566 I17.329 J-.921
N9930 G1 X35.241 Y8.344
N9940 G2 X31.03 Y4.162 I-4722.081 J4749.57
N9950 G1 X27.472
N9960 X23.914
N9970 G2 X23.433 Y4.668 I5.626 J5.831
N9980 G3 X23.333 Y4.975 I-.655 J-.044
N9990 X22.598 Y5.627 I-1.362 J-.795
N10000 X21.91 Y5.657 I-.539 J-4.429
N10010 X14.718 Y5.656 I-3.557 J-275.167
N10020 X14.27 Y5.63 I-.089 J-2.386
N10030 X13.402 Y4.534 I.392 J-1.201
N10040 X13.938 Y3.451 I1.174 J-.093
N10050 X14.311 Y3.282 I.455 J.51
N10060 X15.404 Y3.238 I.889 J8.378
N10070 X22.089 Y3.235 I4.513 J2353.681
N10080 X22.918 Y2.436 I11.207 J10.802
N10090 X23.294 Y2.249 I.58 J.699
N10100 X24.465 Y2.227 I.847 J13.91
N10110 X30.984 Y2.23 I3.053 J495.159
N10120 G1 X31.648 Y2.246
N10130 G3 X32.088 Y2.505 I-.242 J.917
N10140 X36.776 Y7.154 I-193.762 J200.066
N10150 X37.086 Y7.55 I-.944 J1.058
N10160 X37.171 Y8.063 I-1.333 J.483
N10170 X37.182 Y10.411 I-74.584 J1.54
N10180 G1 X37.376 Y10.597
N10190 X40.02
N10200 G3 X40.943 Y10.927 I0. J1.458
N10210 G0 Z2.
N10220 X43.614 Y14.509
N10230 G1 Z-.1 F1800.
N10240 G3 X43.644 Y11.92 I80.756 J-.376 F1000.
N10250 G1 X43.662 Y11.695
N10260 G3 X45.483 Y10.636 I1.409 J.327
N10270 X46.518 Y11.641 I-.423 J1.471
N10280 G1 X46.548 Y11.839
N10290 G3 X46.574 Y13.85 I-47.664 J1.618
N10300 G1 X46.583 Y16.724
N10310 X51.348
N10320 G3 X51.558 Y16.934 I0. J.21
N10330 G1 Y19.449
N10340 G3 X51.35 Y19.659 I-.21 J0.
N10350 X45.1 Y19.666 I-3.561 J-394.647
N10360 X43.614 Y18.18 I0. J-1.486
N10370 G1 Y14.595
N10380 G0 Z2.
N10390 X48.726 Y15.509
N10400 G1 Z-.1 F1800.
N10410 X46.744 Y13.523 F1000.
N10420 Y11.195
N10430 X46.113 Y10.564
N10440 X41.874
N10450 X39.135 Y7.827
N10460 G3 X38.835 Y7.312 I.857 J-.845
N10470 X38.799 Y6.665 I3.744 J-.532
N10480 X38.812 Y4.365 I45.155 J-.889
N10490 X38.932 Y3.89 I.837 J-.042
N10500 X40.796 Y3.53 I1.076 J.568
N10510 X41.162 Y4.04 I-1.17 J1.227
N10520 X41.23 Y4.577 I-1.603 J.475
N10530 X41.235 Y6.851 I-75.066 J1.3
N10540 G1 X42.8 Y8.416
N10550 X46.471
N10560 G3 X46.62 Y8.478 I0. J.21
N10570 G1 X48.594 Y10.455
N10580 Y12.647
N10590 X49.588 Y13.641
N10600 X51.211
N10610 G3 X56.518 Y8.33 I1311.044 J1304.727
N10620 G1 X57.8
N10630 G3 Y10.75 I0. J1.21
N10640 G1 X56.952
N10650 X52.195 Y15.509
N10660 G3 X52.046 Y15.571 I-.149 J-.148
N10670 G1 X48.875
N10680 G3 X48.726 Y15.509 I0. J-.21
N10690 G1 X48.02 Y14.801
N10700 G0 Z2.
N10710 X51.348 Y21.97
N10720 G1 Z-.1 F1800.
N10730 X49.113 F1000.
N10740 G3 X48.903 Y21.76 I0. J-.21
N10750 G1 Y21.151
N10760 Y20.542
N10770 G3 X49.113 Y20.332 I.21 J0.
N10780 G1 X50.23
N10790 X51.348
N10800 G3 X51.558 Y20.542 I0. J.21
N10810 G1 Y21.151
N10820 Y21.76
N10830 G3 X51.348 Y21.97 I-.21 J0.
N10840 G1 X50.348
N10850 G0 Z2.
N10860 X51.399 Y25.405
N10870 G1 Z-.1 F1800.
N10880 G3 X51.383 Y34.649 I-1580.679 J1.831 F1000.
N10890 X51.343 Y35.302 I-3.073 J.139
N10900 X50.664 Y36.042 I-1.285 J-.497
N10910 X49.685 Y36.044 I-.492 J-1.014
N10920 X49.059 Y35.431 I.573 J-1.211
N10930 X48.984 Y35.102 I.82 J-.359
N10940 X48.954 Y33.404 I21.629 J-1.241
N10950 G1 Y31.716
N10960 Y28.436
N10970 X46.498 Y25.982
N10980 G3 X45.103 Y25.962 I.736 J-99.161
N10990 X44.736 Y25.915 I-.001 J-1.443
N11000 X43.967 Y25.203 I.481 J-1.292
N11010 X44.416 Y23.747 I1.102 J-.457
N11020 X44.887 Y23.549 I.659 J.907
N11030 X45.694 Y23.529 I.558 J6.277
N11040 G1 X46.657
N11050 X47.425 Y22.793
N11060 G3 X47.786 Y22.65 I.431 J.563
N11070 X48.995 Y22.617 I.903 J10.75
N11080 X51.348 Y22.616 I1.497 J1536.317
N11090 X51.558 Y22.826 I0. J.21
N11100 G1 Y25.202
N11110 G3 X51.399 Y25.405 I-.21 J0.
N11120 G1 Y26.405
N11130 G0 Z2.
N11140 X55.101 Y23.955
N11150 G1 Z-.1 F1800.
N11160 Y18.347 F1000.
N11170 G3 X55.311 Y18.137 I.21 J0.
N11180 G1 X64.235
N11190 X66.48 Y15.892
N11200 Y12.055
N11210 G3 X69.44 I1.48 J0.
N11220 G1 Y13.14
N11230 G3 X79.127 Y13.142 I2.788 J8756.465
N11240 X80.789 Y13.17 I.346 J28.608
N11250 X81.121 Y13.211 I-.078 J2.025
N11260 X81.382 Y13.334 I-.22 J.804
N11270 X82.032 Y15.112 I-.69 J1.26
N11280 X81.124 Y16.017 I-1.473 J-.572
N11290 G1 X80.94 Y16.087
N11300 X71.398 Y16.098
N11310 X63.392 Y24.103
N11320 G3 X63.244 Y24.165 I-.148 J-.148
N11330 G1 X55.311
N11340 G3 X55.101 Y23.955 I0. J-.21
N11350 G1 Y22.955
N11360 G0 Z2.
N11370 X43.913 Y37.788
N11380 G1 Z-.1 F1800.
N11390 X43.883 Y37.037 F1000.
N11400 G3 X43.891 Y32.413 I156.435 J-2.041
N11410 G1 X43.911 Y32.068
N11420 G3 X44.774 Y31.214 I1.308 J.458
N11430 X45.431 Y31.179 I.537 J3.904
N11440 X47.737 Y31.193 I.878 J44.675
N11450 G1 X47.955 Y31.214
N11460 G3 X48.696 Y32.975 I-.341 J1.18
N11470 X48.05 Y33.539 I-1.159 J-.676
N11480 X47.536 Y33.61 I-.464 J-1.469
N11490 X46.327 Y33.628 I-2.471 J-123.467
N11500 X46.307 Y37.37 I-375.252 J-.222
N11510 X46.25 Y37.865 I-2.455 J-.028
N11520 X45.279 Y38.679 I-1.243 J-.497
N11530 X44.397 Y38.46 I-.18 J-1.161
N11540 X43.913 Y37.788 I.732 J-1.037
N11550 X43.883 Y37.037 I5.404 J-.595
N11560 G1 X43.881 Y36.789
N11570 G0 Z2.
N11580 X33.503 Y37.82
N11590 G1 Z-.1 F1800.
N11600 X33.48 Y37.572 F1000.
N11610 X33.466 Y36.655
N11620 G3 X33.46 Y27.293 I3449.459 J-6.736
N11630 X24.787 Y18.601 I2735.639 J-2738.17
N11640 G1 X23.74 Y17.532
N11650 X23.506 Y17.277
N11660 G3 X23.327 Y16.712 I.836 J-.577
N11670 X23.3 Y14.771 I28.815 J-1.37
N11680 G1 Y13.754
N11690 Y11.022
N11700 G3 X21.917 Y10.977 I.15 J-25.987
N11710 X21.562 Y10.845 I.19 J-1.054
N11720 X21.089 Y8.595 I.7 J-1.322
N11730 X21.88 Y8.102 I1.139 J.948
N11740 G1 X22.113 Y8.077
N11750 G3 X24.315 Y8.06 I1.587 J66.481
N11760 G1 X26.348
N11770 G3 X26.373 Y6.855 I18.453 J-.228
N11780 X26.67 Y6.284 I.883 J.097
N11790 X28.253 Y6.821 I.642 J.709
N11800 X28.291 Y7.648 I-5.186 J.652
N11810 X28.292 Y8.428 I-142.214 J.656
N11820 X28.751 Y9.199 I-1.096 J1.175
N11830 X28.082 Y10.786 I-1.437 J.328
N11840 X27.331 Y11.002 I-.711 J-1.056
N11850 X26.26 Y11.022 I-2.941 J-130.331
N11860 G1 Y13.409
N11870 Y15.917
N11880 G3 X34.556 Y24.222 I-7052.749 J7053.533
N11890 X35.954 Y25.659 I-32.04 J32.561
N11900 X36.222 Y25.981 I-2.418 J2.286
N11910 X36.387 Y26.471 I-.77 J.532
N11920 X36.413 Y28.913 I-57.292 J1.844
N11930 G1 X36.422 Y31.174
N11940 G3 X39.621 Y31.178 I.884 J715.42
N11950 X40.272 Y31.211 I.1 J4.381
N11960 X40.69 Y31.391 I-.109 J.829
N11970 X41.191 Y32.048 I-.829 J1.152
N11980 X41.23 Y32.636 I-2.955 J.49
N11990 X41.219 Y34.923 I-44.906 J.923
N12000 X41.184 Y35.302 I-2.183 J-.01
N12010 X40.516 Y36.032 I-1.24 J-.464
N12020 X39.004 Y35.599 I-.516 J-1.058
N12030 X38.815 Y35.122 I.806 J-.594
N12040 X38.793 Y34.253 I8.637 J-.652
N12050 G1 Y33.626
N12060 X36.422
N12070 G3 X36.395 Y37.619 I-350.18 J-.347
N12080 X36.339 Y37.937 I-.837 J.016
N12090 X35.656 Y38.76 I-1.511 J-.559
N12100 X34.332 Y38.816 I-.716 J-1.268
N12110 X33.503 Y37.82 I.596 J-1.34
N12120 G1 X33.48 Y37.572
N12130 X33.469 Y36.822
N12140 G0 Z2.
N12150 X33.881 Y39.096
N12160 G1 Z-.1 F1800.
N12170 X36.215 F1000.
N12180 X36.519 Y38.793
N12190 X40.759
N12200 G3 X41.335 Y38.219 I118.358 J118.071
N12210 X41.343 Y37.399 I20.973 J-.205
N12220 X41.556 Y36.791 I1.035 J.021
N12230 X43.551 Y36.794 I.996 J.658
N12240 X43.753 Y37.267 I-.802 J.622
N12250 X43.775 Y38.786 I-16.412 J.998
N12260 X43.504 Y39.495 I-1.261 J-.076
N12270 X42.79 Y40.251 I-6.194 J-5.135
N12280 X41.996 Y40.997 I-7.858 J-7.562
N12290 X41.302 Y41.226 I-.646 J-.79
N12300 X35.358 Y41.239 I-3.721 J-362.465
N12310 X29.503 Y41.196 I-.499 J-332.
N12320 X28.88 Y40.726 I.522 J-1.341
N12330 X28.824 Y39.363 I.951 J-.722
N12340 X29.395 Y38.88 I1.275 J.927
N12350 X30.017 Y38.812 I.557 J2.224
N12360 X33.491 Y38.793 I2.449 J131.875
N12370 X33.64 Y38.855 I0. J.21
N12380 G1 X33.881 Y39.096
N12390 X34.881
N12400 G0 Z2.
N12410 X19.337 Y36.111
N12420 G1 Z-.1 F1800.
N12430 G3 X18.597 Y35.442 I.46 J-1.251 F1000.
N12440 X19.023 Y33.928 I1.058 J-.52
N12450 X19.486 Y33.739 I.581 J.762
N12460 X20.588 Y33.714 I.776 J10.036
N12470 G1 X21.554
N12480 G3 X23.751 Y31.553 I89.293 J88.62
N12490 X24.264 Y31.236 I.935 J.939
N12500 X24.951 Y31.202 I.557 J4.306
N12510 X29.658 Y31.18 I3.138 J164.786
N12520 G1 X30.118 Y31.199
N12530 G3 X31.043 Y32.184 I-.249 J1.161
N12540 X30.458 Y33.442 I-1.191 J.211
N12550 X30.065 Y33.584 I-.429 J-.573
N12560 X28.697 Y33.618 I-1.034 J-14.062
N12570 G1 X27.55 Y33.621
N12580 X25.134 Y33.628
N12590 G3 X22.996 Y35.742 I-115.818 J-114.997
N12600 X22.614 Y36.036 I-1.674 J-1.778
N12610 X22.08 Y36.153 I-.491 J-.966
N12620 X19.563 Y36.132 I-.868 J-46.803
N12630 G1 X19.337 Y36.111
N12640 G3 X18.723 Y35.651 I.496 J-1.301
N12650 G1 X18.608 Y35.459
N12660 G0 Z2.
N12670 X15.22 Y33.88
N12680 G1 Z-.1 F1800.
N12690 X18.474 Y30.624 F1000.
N12700 X18.472 Y13.854
N12710 G3 X17.567 Y12.907 I34.754 J-34.102
N12720 X17.216 Y12.342 I1.133 J-1.097
N12730 X17.21 Y8.223 I496.851 J-2.806
N12740 X17.271 Y8.074 I.21 J0.
N12750 G1 X19.212 Y6.135
N12760 G3 X19.583 Y5.967 I.505 J.626
N12770 X20.619 Y5.927 I.815 J7.688
N12780 X23.817 Y5.926 I2.204 J1236.505
N12790 X25.399 Y4.367 I46.394 J45.497
N12800 X25.995 Y4.116 I.591 J.568
N12810 X29.793 Y4.113 I1.968 J89.867
N12820 G1 X30.072 Y4.128
N12830 G3 X30.36 Y4.262 I-.157 J.715
N12840 X31.08 Y4.921 I-4.211 J5.316
N12850 X32.864 Y6.737 I-115.011 J114.76
N12860 X33.228 Y7.198 I-2.315 J2.208
N12870 X33.374 Y7.839 I-.946 J.552
N12880 G1 Y8.822
N12890 G3 X33.61 Y9.54 I-.974 J.718
N12900 X31.428 Y8.819 I-1.21 J0.
N12910 G1 Y8.038
N12920 X29.462 Y6.041
N12930 X26.454
N12940 G3 X24.785 Y7.679 I-40.617 J-39.734
N12950 X24.406 Y7.83 I-.469 J-.624
N12960 X23.215 Y7.867 I-.916 J-10.325
N12970 X20.181 Y7.87 I-3.251 J-1813.18
N12980 X19.669 Y8.383 I-391.493 J-390.583
N12990 G1 Y11.558
N13000 G3 X20.649 Y12.604 I-22.426 J21.999
N13010 X20.908 Y13.366 I-.789 J.694
N13020 X20.926 Y20.296 I-474.45 J4.71
N13030 X20.89 Y31.601 I-1360.259 J1.321
N13040 G1 X20.87 Y32.744
N13050 G3 X20.397 Y33.386 I-1.226 J-.407
N13060 X19.947 Y33.563 I-.687 J-1.086
N13070 X18.963 Y33.629 I-.818 J-4.863
N13080 G1 X16.571 Y36.013
N13090 G3 X14.248 Y38.3 I-83.876 J-82.869
N13100 X13.77 Y38.635 I-1.295 J-1.338
N13110 X13.366 Y38.693 I-.44 J-1.635
N13120 X11.895 Y38.671 I-.454 J-19.12
N13130 G1 X11.713 Y38.648
N13140 G3 X10.897 Y37.762 I.436 J-1.221
N13150 X11.402 Y36.468 I1.136 J-.302
N13160 X11.871 Y36.274 I.633 J.868
N13170 X12.844 Y36.254 I.659 J8.284
N13180 G2 X15.927 Y33.173 I-1581.327 J-1585.652
N13190 G0 Z2.
N13200 X6.641 Y36.116
N13210 G1 Z-.1 F1800.
N13220 G3 X5.894 Y35.438 I.47 J-1.267 F1000.
N13230 X6.319 Y33.93 I1.054 J-.517
N13240 X6.809 Y33.743 I.533 J.658
N13250 X8.3 Y33.714 I1.073 J16.868
N13260 G1 X9.236
N13270 X11.549
N13280 X15.935 Y29.328
N13290 Y15.132
N13300 G3 X13.809 Y12.952 I135.107 J-133.858
N13310 X13.52 Y12.574 I1.768 J-1.65
N13320 X13.78 Y11.163 I1.12 J-.524
N13330 X15.14 Y10.952 I.837 J.915
N13340 X15.616 Y11.336 I-1.167 J1.936
N13350 X17.981 Y13.723 I-91.938 J93.462
N13360 X18.374 Y14.363 I-.995 J1.05
N13370 X18.372 Y29.597 I-3608.796 J7.152
N13380 X18.345 Y30.126 I-2.34 J.147
N13390 X18.218 Y30.441 I-.69 J-.095
N13400 X17.612 Y31.126 I-4.491 J-3.358
N13410 X12.983 Y35.737 I-274.219 J-270.76
N13420 X12.669 Y35.995 I-2.123 J-2.251
N13430 X12.263 Y36.139 I-.446 J-.612
N13440 X11.105 Y36.16 I-.822 J-13.485
N13450 X7.198 Y36.138 I-.81 J-201.989
N13460 G1 X6.641 Y36.116
N13470 G3 X6.02 Y35.648 I.518 J-1.332
N13480 G1 X5.911 Y35.465
N13490 G0 Z2.
N13500 X6.643 Y41.197
N13510 G1 Z-.1 F1800.
N13520 G3 X5.903 Y40.521 I.459 J-1.246 F1000.
N13530 X6.112 Y39.164 I1.106 J-.524
N13540 X6.673 Y38.832 I.895 J.872
N13550 X7.558 Y38.807 I.66 J7.603
N13560 X16.518 Y38.806 I4.526 J550.116
N13570 X17.47 Y38.831 I.089 J14.715
N13580 X18.35 Y40.128 I-.32 J1.164
N13590 X17.339 Y41.219 I-1.193 J-.092
N13600 X15.937 Y41.238 I-.968 J-19.937
N13610 X7.662 Y41.218 I-2.234 J-793.697
N13620 G1 X6.643 Y41.197
N13630 G3 X6.026 Y40.73 I.509 J-1.313
N13640 G1 X5.916 Y40.543
N13650 G0 Z2.
N13660 X10.878 Y45.668
N13670 G1 Z-.1 F1800.
N13680 X12.842 F1000.
N13690 G3 X14.814 Y47.64 I0. J1.972
N13700 X14.813 Y51.36 I-355.029 J1.746
N13710 X14.607 Y52.282 I-2.204 J-.008
N13720 X13.881 Y53.057 I-1.989 J-1.135
N13730 X13.395 Y53.235 I-.723 J-1.22
N13740 X12.525 Y53.305 I-.851 J-5.187
N13750 X10.816 Y53.311 I-1.221 J-105.515
N13760 G1 Y55.894
N13770 Y58.477
N13780 G3 X12.901 Y58.496 I-2.15 J350.961
N13790 G1 X13.223 Y58.515
N13800 G3 X13.685 Y58.692 I-.261 J1.372
N13810 X14.67 Y60.059 I-.895 J1.684
N13820 X13.666 Y61.987 I-1.813 J.281
N13830 X13.164 Y62.164 I-.856 J-1.634
N13840 X11.86 Y62.196 I-.989 J-13.469
N13850 G1 X10.816 Y62.204
N13860 Y69.969
N13870 G3 X12.028 Y71.179 I-402.928 J404.926
N13880 G2 X15.315 Y71.191 I7.259 J-1515.744
N13890 G3 X15.957 Y71.602 I-.763 J1.9
N13900 X16.864 Y72.54 I-5.203 J5.943
N13910 X17.032 Y72.805 I-1.007 J.822
N13920 X17.097 Y73.294 I-1.815 J.488
N13930 X17.094 Y74.4 I-9.968 J.529
N13940 X17.05 Y74.68 I-1.223 J-.05
N13950 X16.373 Y75.413 I-1.284 J-.506
N13960 X15.884 Y75.519 I-.462 J-.945
N13970 X11.517 Y75.517 I-2.118 J-115.801
N13980 G1 X11.114 Y75.496
N13990 X10.971 Y75.375
N14000 G3 X7.845 Y72.235 I105.15 J-107.823
N14010 X7.356 Y71.674 I3.236 J-3.31
N14020 X7.139 Y71.101 I1.228 J-.792
N14030 G1 X7.122 Y70.629
N14040 G3 X7.107 Y60.225 I965.142 J-6.669
N14050 G1 Y49.431
N14060 G3 X7.616 Y48.214 I1.71 J0.
N14070 G1 X9.798 Y46.05
N14080 G3 X10.878 Y45.668 I1.076 J1.328
N14090 G0 Z2.
N14100 X26.957 Y56.433
N14110 G1 Z-.1 F1800.
N14120 G3 X26.223 Y55.766 I.451 J-1.233 F1000.
N14130 X26.43 Y54.408 I1.109 J-.526
N14140 X26.989 Y54.075 I.895 J.864
N14150 X27.651 Y54.039 I.543 J3.93
N14160 X29.958 Y54.053 I.878 J44.8
N14170 G1 X30.175 Y54.074
N14180 G3 X31.052 Y55.368 I-.321 J1.162
N14190 X29.857 Y56.472 I-1.196 J-.095
N14200 X27.263 Y56.456 I-.98 J-50.34
N14210 G1 X26.957 Y56.433
N14220 G3 X26.231 Y55.778 I.445 J-1.224
N14230 G0 Z2.
N14240 X26.308 Y63.546
N14250 G1 Z-.1 F1800.
N14260 G3 X26.118 Y63.063 I.77 J-.581 F1000.
N14270 X26.093 Y61.767 I12.834 J-.894
N14280 G1 Y60.594
N14290 G3 X23.852 Y58.318 I111.121 J-111.626
N14300 X23.566 Y57.834 I.97 J-.901
N14310 X23.562 Y52.957 I677.956 J-3.07
N14320 X23.61 Y52.367 I3.68 J.005
N14330 X23.764 Y52.052 I.828 J.21
N14340 X25.767 Y52.031 I1.008 J.631
N14350 X25.966 Y52.514 I-.666 J.558
N14360 X25.998 Y53.917 I-14.959 J1.041
N14370 G2 X26.009 Y57.04 I2007.25 J-5.369
N14380 G3 X28.142 Y59.197 I-119.055 J119.881
N14390 X28.467 Y59.66 I-1.325 J1.274
N14400 X28.538 Y60.14 I-1.551 J.474
N14410 X28.507 Y63.039 I-46.002 J.958
N14420 G1 X28.484 Y63.238
N14430 G3 X27.806 Y63.981 I-1.286 J-.493
N14440 X26.827 Y63.986 I-.494 J-1.014
N14450 X26.162 Y63.275 I.536 J-1.168
N14460 X26.098 Y62.709 I1.839 J-.496
N14470 G1 Y62.589
N14480 G0 Z2.
N14490 X29.86 Y64.11
N14500 G1 Z-.1 F1800.
N14510 G3 Y61.65 I0. J-1.23 F1000.
N14520 G1 X32.4
N14530 G3 X33.317 Y62.06 I0. J1.23
N14540 G1 X38.597
N14550 G3 X38.807 Y62.27 I0. J.21
N14560 G1 Y63.9
N14570 G3 X38.597 Y64.11 I-.21 J0.
N14580 G1 X29.86
N14590 G3 X28.967 Y63.725 I0. J-1.23
N14600 G0 Z2.
N14610 X38.597 Y61.414
N14620 G1 Z-.1 F1800.
N14630 X36.362 F1000.
N14640 G3 X36.152 Y61.204 I0. J-.21
N14650 G1 Y60.595
N14660 Y59.984
N14670 G3 X36.362 Y59.774 I.21 J0.
N14680 G1 X37.479
N14690 X38.597
N14700 G3 X38.807 Y59.984 I0. J.21
N14710 G1 Y60.595
N14720 Y61.204
N14730 G3 X38.597 Y61.414 I-.21 J0.
N14740 G1 X37.597
N14750 G0 Z2.
N14760 X35.39 Y54.035
N14770 G1 Z-.1 F1800.
N14780 X38.59 F1000.
N14790 G3 X38.8 Y54.245 I0. J.21
N14800 G1 Y58.918
N14810 G3 X38.592 Y59.128 I-.21 J0.
N14820 X33.893 Y59.145 I-3.631 J-354.145
N14830 X32.788 Y59.071 I-.098 J-6.864
N14840 X32.475 Y58.927 I.1 J-.631
N14850 X31.383 Y57.821 I4.788 J-5.82
N14860 X31.187 Y57.454 I1.387 J-.975
N14870 X31.192 Y55.279 I53.394 J-.973
N14880 X31.268 Y54.788 I2.319 J.106
N14890 X31.65 Y54.298 I.844 J.265
N14900 X31.989 Y54.104 I.812 J1.027
N14910 X32.656 Y54.044 I.581 J2.701
N14920 X36.39 Y54.035 I2.458 J247.437
N14930 G0 Z2.
N14940 X40.28 Y69.899
N14950 G1 Z-.1 F1800.
N14960 G3 X40.09 Y69.4 I.72 J-.559 F1000.
N14970 X40.064 Y67.928 I16.729 J-1.034
N14980 G1 Y67.406
N14990 Y65.524
N15000 G3 X39.562 Y64.973 I4.629 J-4.723
N15010 X39.366 Y64.591 I2.236 J-1.392
N15020 G1 X39.36 Y56.574
N15030 G3 X39.368 Y49.194 I529.006 J-3.081
N15040 X39.418 Y48.343 I6.525 J-.047
N15050 X39.642 Y47.976 I.665 J.153
N15060 X44.057 Y43.545 I187.928 J182.839
N15070 G1 X44.549 Y43.081
N15080 G3 X45.068 Y42.905 I.53 J.71
N15090 X46.866 Y42.888 I1.145 J25.263
N15100 G2 X49.479 Y42.896 I9.668 J-2658.117
N15110 G3 X49.84 Y43.093 I-.468 J1.287
N15120 X51.177 Y44.4 I-7.73 J9.243
N15130 X51.341 Y44.742 I-.646 J.52
N15140 X50.487 Y46.268 I-1.189 J.336
N15150 X49.647 Y46.193 I-.31 J-1.275
N15160 X49.234 Y45.879 I.728 J-1.387
N15170 X48.682 Y45.336 I31.623 J-32.706
N15180 G1 X47.207
N15190 X45.733
N15200 G2 X41.804 Y49.263 I4183.631 J4189.316
N15210 G1 Y56.528
N15220 Y63.793
N15230 G3 X42.297 Y64.337 I-4.407 J4.495
N15240 X42.504 Y65.056 I-.981 J.67
N15250 X42.474 Y69.398 I-90.918 J1.547
N15260 G1 X42.455 Y69.587
N15270 G3 X41.773 Y70.332 I-1.289 J-.496
N15280 X40.797 Y70.336 I-.491 J-1.017
N15290 X40.131 Y69.62 I.55 J-1.18
N15300 X40.07 Y68.941 I2.408 J-.559
N15310 G0 Z2.
N15320 X45.861 Y73.602
N15330 G1 Z-.1 F1800.
N15340 X45.791 Y73.422 F1000.
N15350 X45.779 Y63.802
N15360 G3 X42.715 Y63.785 I-.724 J-148.351
N15370 X42.437 Y63.682 I-.001 J-.423
N15380 X42.35 Y63.512 I.123 J-.17
N15390 X42.365 Y57.239 I630.843 J-1.598
N15400 X42.399 Y57.014 I.607 J-.025
N15410 X42.62 Y56.85 I.248 J.103
N15420 G1 X42.916 Y56.834
N15430 G3 X45.779 Y56.828 I2.03 J274.861
N15440 G1 X45.786 Y52.155
N15450 X45.791 Y47.232
N15460 G3 X46.163 Y46.498 I2.951 J1.035
N15470 X47.03 Y45.878 I1.365 J.993
N15480 X49.271 Y46.764 I.603 J1.753
N15490 X49.488 Y47.313 I-2.653 J1.363
N15500 G1 X49.495 Y57.005
N15510 X49.5 Y66.453
N15520 G3 X52.975 Y66.479 I-.337 J273.977
N15530 X53.275 Y66.533 I-.002 J.879
N15540 X54.376 Y67.493 I-.681 J1.891
N15550 X53.8 Y69.805 I-1.623 J.824
N15560 X53.021 Y70.161 I-1.523 J-2.303
N15570 G2 X49.502 Y70.178 I6.987 J1806.907
N15580 G3 X49.473 Y73.253 I-173.697 J-.112
N15590 X49.416 Y73.552 I-.993 J-.035
N15600 X48.744 Y74.521 I-1.91 J-.607
N15610 X46.105 Y74.07 I-1.107 J-1.472
N15620 X45.791 Y73.422 I2.194 J-1.462
N15630 G1 X45.79 Y72.615
N15640 G0 Z2.
N15650 X44.184 Y77.57
N15660 G1 Z-.1 F1800.
N15670 G3 X43.761 Y77.417 I.063 J-.839 F1000.
N15680 X42.982 Y76.71 I4.693 J-5.947
N15690 X38.163 Y71.884 I529.515 J-533.579
N15700 X37.722 Y71.399 I3.61 J-3.73
N15710 X37.537 Y71.042 I1.549 J-1.029
N15720 X37.527 Y67.17 I1036.878 J-4.448
N15730 X37.558 Y66.453 I5.278 J-.133
N15740 X37.735 Y66.023 I.835 J.091
N15750 X39.739 Y66.001 I1.009 J.631
N15760 X39.939 Y66.481 I-.668 J.56
N15770 X39.969 Y67.844 I-14.339 J1.003
N15780 X39.978 Y70.247 I-6779.683 J25.008
N15790 G1 X42.424 Y72.694
N15800 X44.87 Y75.142
N15810 X49.473
N15820 G3 X54.812 Y69.817 I498.818 J494.794
N15830 X55.307 Y69.393 I3.41 J3.479
N15840 X55.676 Y69.272 I.405 J.611
N15850 X57.768 Y69.259 I1.19 J22.732
N15860 G1 X58.114 Y69.287
N15870 G3 X58.857 Y71.05 I-.34 J1.182
N15880 X58.209 Y71.614 I-1.157 J-.674
N15890 X57.693 Y71.685 I-.467 J-1.481
N15900 X56.369 Y71.705 I-2.55 J-126.528
N15910 G1 X53.59 Y74.489
N15920 G3 X50.912 Y77.142 I-113.672 J-112.049
N15930 X50.481 Y77.483 I-1.935 J-2.002
N15940 X50.01 Y77.574 I-.411 J-.865
N15950 X44.184 Y77.57 I-2.759 J-215.011
N15960 X43.761 Y77.417 I.063 J-.839
N15970 X43.351 Y77.059 I2.366 J-3.126
N15980 G0 Z2.
N15990 X34.148 Y80.287
N16000 G1 Z-.1 F1800.
N16010 G3 X33.746 Y80.146 I.012 J-.677 F1000.
N16020 X32.968 Y79.442 I4.593 J-5.864
N16030 X26.828 Y73.299 I808.293 J-814.032
N16040 X26.3 Y72.729 I4.924 J-5.089
N16050 X26.108 Y72.363 I1.321 J-.928
N16060 X26.099 Y70.577 I99.04 J-1.368
N16070 X26.136 Y70.164 I1.967 J-.032
N16080 X26.839 Y69.348 I1.28 J.392
N16090 X28.309 Y69.788 I.476 J1.086
N16100 X28.512 Y70.26 I-.792 J.622
N16110 X28.548 Y71.568 I-13.326 J1.013
N16120 G1 X31.693 Y74.714
N16130 X34.837 Y77.86
N16140 X51.731
N16150 G3 X54.86 Y74.764 I163.96 J162.618
N16160 X55.312 Y74.438 I1.415 J1.482
N16170 X55.576 Y74.378 I.276 J.607
N16180 X57.973 Y74.376 I1.222 J26.493
N16190 G1 X58.119 Y74.395
N16200 G3 X58.719 Y76.355 I-.336 J1.174
N16210 X58.226 Y76.716 I-1.212 J-1.138
N16220 X57.731 Y76.79 I-.45 J-1.306
N16230 X56.275 Y76.808 I-3.584 J-230.905
N16240 X53.26 Y79.8 I-232.768 J-231.531
N16250 X52.816 Y80.165 I-2.389 J-2.464
N16260 X52.287 Y80.288 I-.465 J-.791
N16270 X42.549 Y80.309 I-7.002 J-1031.89
N16280 X34.148 Y80.287 I-1.774 J-945.126
N16290 X33.746 Y80.146 I.012 J-.677
N16300 X33.317 Y79.772 I2.43 J-3.224
N16310 G0 Z2.
N16320 X22.325 Y74.641
N16330 G1 Z-.1 F1800.
N16340 X22.295 Y73.888 F1000.
N16350 G3 X22.302 Y69.247 I155.528 J-2.063
N16360 G1 X22.323 Y68.901
N16370 G3 X23.134 Y68.064 I1.153 J.306
N16380 X24.604 Y68.701 I.343 J1.222
N16390 X24.694 Y68.979 I-.367 J.273
N16400 X24.732 Y71.44 I-60.281 J2.173
N16410 X24.726 Y74.139 I-132.503 J1.069
N16420 G1 X24.713 Y74.466
N16430 G3 X23.785 Y75.491 I-1.279 J-.225
N16440 X22.797 Y75.293 I-.28 J-1.168
N16450 X22.325 Y74.641 I.696 J-1.001
N16460 X22.295 Y73.888 I5.42 J-.597
N16470 G1 X22.293 Y73.642
N16480 G0 Z2.
N16490 X19.785 Y74.641
N16500 G1 Z-.1 F1800.
N16510 X19.754 Y73.908 F1000.
N16520 G3 X19.761 Y69.283 I154.355 J-2.077
N16530 G1 X19.783 Y68.901
N16540 G3 X20.594 Y68.064 I1.153 J.306
N16550 X22.064 Y68.701 I.343 J1.222
N16560 X22.154 Y68.981 I-.364 J.272
N16570 X22.192 Y71.528 I-64.885 J2.255
N16580 X22.186 Y74.182 I-124.15 J1.017
N16590 X21.675 Y75.281 I-1.266 J.08
N16600 X20.472 Y75.415 I-.711 J-.919
N16610 X19.785 Y74.641 I.5 J-1.136
N16620 X19.754 Y73.908 I5.127 J-.582
N16630 G1 X19.752 Y73.642
N16640 G0 Z2.
N16650 X17.409 Y74.979
N16660 G1 Z-.1 F1800.
N16670 G3 X17.229 Y74.488 I.648 J-.516 F1000.
N16680 X17.204 Y72.855 I20.63 J-1.136
N16690 G1 Y72.316
N16700 Y70.243
N16710 G3 X17.161 Y70.201 I1.427 J-1.499
N16720 X13.003 Y70.172 I-.24 J-260.153
N16730 X11.44 Y69.374 I.01 J-1.951
N16740 X12.414 Y66.528 I1.542 J-1.062
N16750 X12.783 Y66.472 I.307 J.789
N16760 X16.929 Y66.477 I1.752 J279.149
N16770 X19.254 Y68.837 I-121.437 J121.948
N16780 X19.643 Y69.48 I-1.075 J1.091
N16790 X19.641 Y74.281 I-354.934 J2.254
N16800 X19.466 Y74.909 I-1.099 J.032
N16810 X18.7 Y75.493 I-1.124 J-.681
N16820 X17.409 Y74.979 I-.273 J-1.194
N16830 X17.229 Y74.488 I.648 J-.516
N16840 X17.209 Y74.019 I5.855 J-.479
N16850 G0 Z2.
N16860 X64.234 Y78.428
N16870 G1 Z-.1 F1800.
N16880 X64.203 Y77.689 F1000.
N16890 G3 X64.213 Y73.059 I153.087 J-2.015
N16900 G1 X64.234 Y72.681
N16910 G3 X65.282 Y71.822 I1.131 J.31
N16920 X66.378 Y72.285 I.111 J1.266
N16930 X66.635 Y73.082 I-.991 J.76
N16940 X66.608 Y78.196 I-134.922 J1.828
N16950 X66.582 Y78.486 I-1.131 J.044
N16960 X65.901 Y79.223 I-1.289 J-.507
N16970 X64.932 Y79.224 I-.485 J-1.003
N16980 X64.234 Y78.428 I.544 J-1.181
N16990 X64.203 Y77.689 I5.211 J-.587
N17000 G1 X64.202 Y77.429
N17010 G0 Z2.
N17020 X66.774 Y78.428
N17030 G1 Z-.1 F1800.
N17040 X66.743 Y77.689 F1000.
N17050 G3 X66.753 Y73.059 I155.16 J-2.002
N17060 G1 X66.774 Y72.681
N17070 G3 X67.822 Y71.822 I1.13 J.31
N17080 X68.917 Y72.285 I.111 J1.266
N17090 X69.175 Y73.081 I-.99 J.76
N17100 X69.148 Y78.187 I-134.645 J1.833
N17110 X69.121 Y78.486 I-1.124 J.05
N17120 X68.444 Y79.222 I-1.282 J-.5
N17130 X67.472 Y79.224 I-.488 J-1.004
N17140 X66.774 Y78.428 I.544 J-1.181
N17150 X66.743 Y77.689 I5.203 J-.585
N17160 G1 X66.741 Y77.429
N17170 G0 Z2.
N17180 X69.478 Y72.347
N17190 G1 Z-.1 F1800.
N17200 G3 X70.745 Y71.828 I1.04 J.732 F1000.
N17210 X71.288 Y72.117 I-.224 J1.075
N17220 X71.529 Y73.677 I-.832 J.927
N17230 X69.421 Y73.605 I-1.033 J-.644
N17240 X70.02 Y71.907 I1.05 J-.584
N17250 G1 X70.257 Y71.833
N17260 X70.302 Y71.828
N17270 G0 Z2.
N17280 X74.395 Y73.374
N17290 G1 Z-.1 F1800.
N17300 G3 X74.359 Y72.707 I4.002 J-.55 F1000.
N17310 X74.372 Y70.366 I45.367 J-.924
N17320 G1 X74.394 Y70.142
N17330 G3 X75.924 Y69.315 I1.158 J.315
N17340 X76.75 Y70.109 I-.405 J1.249
N17350 X76.787 Y70.693 I-3.037 J.485
N17360 X76.795 Y72.985 I-50.206 J1.318
N17370 X76.284 Y74.012 I-1.28 J.004
N17380 X75.081 Y74.146 I-.711 J-.917
N17390 X74.395 Y73.374 I.504 J-1.138
N17400 X74.359 Y72.707 I4.002 J-.55
N17410 G1 X74.357 Y72.375
N17420 G0 Z2.
N17430 X77.1 Y73.71
N17440 G1 Z-.1 F1800.
N17450 G3 X76.918 Y73.223 I.675 J-.529 F1000.
N17460 X76.893 Y71.701 I18.054 J-1.056
N17470 G1 Y71.427
N17480 Y69.737
N17490 G2 X76.344 Y69.186 I-185.993 J184.947
N17500 G1 X68.391
N17510 G3 X61.109 Y69.172 I-2.424 J-670.429
N17520 X60.078 Y69.129 I-.02 J-11.857
N17530 X59.707 Y68.969 I.084 J-.705
N17540 X58.383 Y67.709 I19.838 J-22.175
N17550 X54.853 Y64.154 I142.081 J-144.603
N17560 X54.149 Y63.396 I12.318 J-12.14
N17570 X53.971 Y63.067 I.734 J-.609
N17580 X53.962 Y54.152 I5917.58 J-10.714
N17590 X53.987 Y52.667 I23.646 J-.34
N17600 X54.028 Y52.36 I1.66 J.065
N17610 X54.251 Y52.007 I.816 J.269
N17620 X56.996 Y49.264 I59.595 J56.873
N17630 X57.385 Y49.024 I.633 J.591
N17640 X58.95 Y49.796 I.396 J1.169
N17650 X58.88 Y50.716 I-1.232 J.37
N17660 X58.501 Y51.195 I-1.933 J-1.143
N17670 X56.41 Y53.305 I-115.414 J-112.283
N17680 G1 Y57.789
N17690 Y62.273
N17700 X60.872 Y66.735
N17710 X77.138 Y66.747
N17720 G3 X77.771 Y67.16 I-.669 J1.717
N17730 X79.018 Y68.42 I-25.723 J26.702
N17740 X79.332 Y69.237 I-.751 J.757
N17750 X79.333 Y72.882 I-113.901 J1.879
N17760 G1 X79.32 Y73.21
N17770 G3 X78.381 Y74.225 I-1.283 J-.246
N17780 X77.045 Y73.627 I-.257 J-1.217
N17790 X76.918 Y73.223 I.654 J-.427
N17800 X76.898 Y72.751 I5.532 J-.467
N17810 G0 Z2.
N17820 X79.474 Y75.891
N17830 G1 Z-.1 F1800.
N17840 G3 X79.439 Y75.243 I3.752 J-.531 F1000.
N17850 X79.452 Y72.923 I46.374 J-.899
N17860 X79.572 Y72.44 I.846 J-.046
N17870 X80.521 Y71.821 I1.029 J.541
N17880 X81.615 Y72.284 I.111 J1.262
N17890 X81.876 Y73.095 I-1.029 J.78
N17900 X81.844 Y75.777 I-34.195 J.928
N17910 X81.814 Y75.957 I-.481 J.012
N17920 X81.146 Y76.681 I-1.285 J-.516
N17930 X80.172 Y76.684 I-.49 J-1.003
N17940 X79.474 Y75.891 I.543 J-1.181
N17950 X79.439 Y75.243 I3.752 J-.531
N17960 G1 X79.437 Y74.892
N17970 G0 Z2.
N17980 X82.013 Y78.427
N17990 G1 Z-.1 F1800.
N18000 X81.986 Y77.601 F1000.
N18010 G3 X81.998 Y70.405 I276.776 J-3.119
N18020 G1 X82.014 Y70.146
N18030 G3 X83.551 Y69.317 I1.167 J.324
N18040 X84.373 Y70.129 I-.374 J1.2
N18050 X84.402 Y70.844 I-4.801 J.555
N18060 X84.39 Y78.05 I-272.523 J3.142
N18070 X84.364 Y78.48 I-2.321 J.074
N18080 X83.684 Y79.222 I-1.291 J-.5
N18090 X82.712 Y79.224 I-.488 J-1.007
N18100 X82.013 Y78.427 I.544 J-1.182
N18110 X81.986 Y77.601 I6.591 J-.63
N18120 G1 X81.985 Y77.427
N18130 G0 Z2.
N18140 X84.72 Y73.711
N18150 G1 Z-.1 F1800.
N18160 G3 X84.539 Y73.217 I.652 J-.518 F1000.
N18170 X84.514 Y71.582 I20.658 J-1.139
N18180 G1 Y71.021
N18190 Y68.924
N18200 X82.236 Y66.646
N18210 G3 X62.442 Y66.633 I-5.182 J-7045.286
N18220 X61.168 Y66.591 I-.038 J-18.232
N18230 X60.769 Y66.428 I.053 J-.701
N18240 X59.611 Y65.335 I14.747 J-16.782
N18250 X57.173 Y62.864 I71.64 J-73.121
N18260 X56.692 Y62.328 I6.04 J-5.899
N18270 X56.536 Y62.025 I.957 J-.688
N18280 X56.539 Y54.229 I1071.144 J-3.417
N18290 X56.57 Y53.796 I3.726 J.047
N18300 X56.794 Y53.356 I.76 J.11
N18310 X59.114 Y50.992 I50.611 J47.362
N18320 X59.131 Y50.006 I16.23 J-.221
N18330 X59.332 Y49.495 I.976 J.09
N18340 X61.33 Y49.494 I.999 J.654
N18350 X61.532 Y49.967 I-.792 J.619
N18360 X61.558 Y51.547 I-20.069 J1.114
N18370 X61.277 Y52.263 I-1.285 J-.091
N18380 X60.63 Y52.966 I-5.615 J-4.512
N18390 G2 X58.974 Y54.625 I664.089 J664.658
N18400 G1 Y57.928
N18410 Y61.231
N18420 G2 X61.938 Y64.193 I3265.982 J-3264.5
N18430 G1 X72.418 Y64.2
N18440 X83.03 Y64.207
N18450 G3 X83.621 Y64.587 I-.589 J1.568
N18460 X86.643 Y67.624 I-84.299 J86.906
N18470 X86.905 Y68.046 I-.97 J.895
N18480 X86.95 Y68.415 I-1.314 J.347
N18490 X86.953 Y72.857 I-146.855 J2.301
N18500 G1 X86.939 Y73.21
N18510 G3 X86. Y74.225 I-1.281 J-.244
N18520 X84.72 Y73.711 I-.261 J-1.201
N18530 X84.539 Y73.217 I.652 J-.518
N18540 X84.52 Y72.751 I5.834 J-.479
N18550 G0 Z2.
N18560 X87.259 Y72.347
N18570 G1 Z-.1 F1800.
N18580 G3 X88.523 Y71.828 I1.037 J.726 F1000.
N18590 X89.068 Y72.117 I-.223 J1.077
N18600 X89.31 Y73.676 I-.831 J.927
N18610 X87.202 Y73.605 I-1.034 J-.643
N18620 X87.799 Y71.908 I1.05 J-.584
N18630 G1 X88.036 Y71.833
N18640 X88.082 Y71.828
N18650 G0 Z2.
N18660 X86.394 Y66.622
N18670 G1 Z-.1 F1800.
N18680 G3 X85.887 Y66.412 I.092 J-.941 F1000.
N18690 X85.014 Y65.586 I7.133 J-8.416
N18700 X83.532 Y64.106 I2372.867 J-2377.728
N18710 G1 X73.027
N18720 G3 X63.471 Y64.093 I-3.191 J-1144.988
N18730 X62.183 Y64.051 I-.039 J-18.642
N18740 X61.774 Y63.886 I.055 J-.721
N18750 X60.821 Y62.994 I9.576 J-11.193
N18760 X59.371 Y61.481 I20.691 J-21.278
N18770 X59.102 Y61.035 I.91 J-.854
N18780 X59.093 Y55.973 I1434.146 J-4.965
N18790 X59.12 Y55.075 I9.527 J-.17
N18800 X59.276 Y54.628 I.853 J.048
N18810 X61.181 Y54.369 I1.063 J.681
N18820 X61.51 Y54.964 I-.77 J.813
N18830 G1 X61.525 Y55.144
N18840 G3 X61.542 Y57.735 I-87.294 J1.872
N18850 G1 X61.541 Y60.24
N18860 X62.954 Y61.654
N18870 X84.325 Y61.666
N18880 G3 X84.876 Y62.012 I-.542 J1.474
N18890 X87.086 Y64.193 I-78.675 J81.926
N18900 G1 X88.103
N18910 X89.12
N18920 G2 X89.594 Y63.72 I-45.307 J-45.788
N18930 G3 X89.608 Y57.812 I600.215 J-1.512
N18940 X89.636 Y57.433 I3.291 J.058
N18950 X89.746 Y57.159 I.593 J.078
N18960 X91.232 Y56.617 I1.077 J.646
N18970 X92.029 Y57.767 I-.399 J1.127
N18980 X92.033 Y63.971 I-255.072 J3.298
N18990 G1 X92.021 Y64.414
N19000 G3 X91.817 Y64.932 I-1.068 J-.12
N19010 X91.101 Y65.7 I-5.671 J-4.572
N19020 X90.349 Y66.403 I-7.019 J-6.754
N19030 X89.657 Y66.628 I-.648 J-.816
N19040 X86.604 Y66.632 I-1.649 J-85.087
N19050 X86.074 Y66.533 I-.041 J-1.248
N19060 X85.556 Y66.117 I1.083 J-1.877
N19070 G0 Z2.
N19080 X87.093 Y63.187
N19090 G1 Z-.1 F1800.
N19100 X87.065 Y62.365 F1000.
N19110 G3 X87.078 Y55.191 I274.898 J-3.113
N19120 G1 X87.093 Y54.931
N19130 G3 X88.631 Y54.102 I1.167 J.324
N19140 X89.454 Y54.914 I-.375 J1.202
N19150 X89.483 Y55.645 I-5.041 J.566
N19160 X89.469 Y62.848 I-268.965 J3.073
N19170 X89.443 Y63.24 I-2.295 J.05
N19180 X88.763 Y63.982 I-1.29 J-.5
N19190 X87.792 Y63.984 I-.487 J-1.
N19200 X87.093 Y63.187 I.546 J-1.185
N19210 X87.065 Y62.365 I6.528 J-.627
N19220 G1 X87.064 Y62.188
N19230 G0 Z2.
N19240 X94.716 Y73.376
N19250 G1 Z-.1 F1800.
N19260 G3 X94.676 Y72.776 I3.139 J-.512 F1000.
N19270 X94.688 Y71.343 I21.776 J-.537
N19280 G1 X94.715 Y71.078
N19290 G3 X94.962 Y70.655 I.935 J.262
N19300 X96.338 Y69.227 I21.38 J19.218
N19310 X100.809 Y64.778 I408.535 J406.082
N19320 X101.319 Y64.342 I3.399 J3.466
N19330 X101.693 Y64.221 I.4 J.598
N19340 X106.136 Y64.214 I2.376 J88.442
N19350 X106.612 Y64.33 I.04 J.869
N19360 X106.978 Y66.194 I-.566 J1.079
N19370 X106.471 Y66.562 I-1.221 J-1.149
N19380 X105.901 Y66.628 I-.505 J-1.861
N19390 X102.401 Y66.648 I-3.296 J-269.553
N19400 G1 X99.764 Y69.284
N19410 X97.126 Y71.921
N19420 G3 X97.099 Y73.213 I-18.632 J.26
N19430 X96.088 Y74.239 I-1.28 J-.249
N19440 X94.716 Y73.376 I-.18 J-1.236
N19450 X94.676 Y72.776 I3.139 J-.512
N19460 G1 X94.675 Y72.378
N19470 G0 Z2.
N19480 X97.418 Y72.347
N19490 G1 Z-.1 F1800.
N19500 G3 X98.684 Y71.828 I1.04 J.732 F1000.
N19510 X99.228 Y72.117 I-.223 J1.077
N19520 X99.47 Y73.676 I-.831 J.926
N19530 X97.362 Y73.605 I-1.034 J-.642
N19540 X97.96 Y71.907 I1.048 J-.585
N19550 G1 X98.197 Y71.833
N19560 X98.241 Y71.828
N19570 G0 Z2.
N19580 X99.959 Y72.347
N19590 G1 Z-.1 F1800.
N19600 G3 X101.223 Y71.828 I1.037 J.726 F1000.
N19610 X101.768 Y72.117 I-.223 J1.077
N19620 X102.01 Y73.676 I-.831 J.927
N19630 X99.902 Y73.605 I-1.034 J-.643
N19640 X100.499 Y71.908 I1.05 J-.584
N19650 G1 X100.736 Y71.833
N19660 X100.782 Y71.828
N19670 G0 Z2.
N19680 X102.335 Y75.892
N19690 G1 Z-.1 F1800.
N19700 G3 X102.296 Y75.281 I3.276 J-.516 F1000.
N19710 X102.306 Y73.699 I28.128 J-.622
N19720 G1 X102.335 Y73.366
N19730 G3 X102.429 Y73.15 I.758 J.2
N19740 X103.003 Y72.49 I3.875 J2.793
N19750 X106.905 Y68.561 I238.941 J233.421
N19760 G1 X111.185 Y64.279
N19770 G3 X111.199 Y60.274 I271.606 J-1.01
N19780 X111.285 Y59.811 I1.394 J.018
N19790 X112.103 Y59.153 I1.176 J.625
N19800 X113.395 Y59.613 I.31 J1.177
N19810 X113.619 Y60.34 I-.998 J.705
N19820 X113.624 Y64.526 I-148.892 J2.273
N19830 X113.587 Y65.135 I-3.148 J.111
N19840 X113.443 Y65.416 I-.662 J-.161
N19850 X112.606 Y66.327 I-8.206 J-6.706
N19860 X104.748 Y74.208 I-1185.362 J-1174.
N19870 X104.727 Y75.568 I-80.495 J-.566
N19880 X104.677 Y75.937 I-1.454 J-.006
N19890 X103.699 Y76.779 I-1.24 J-.452
N19900 X102.817 Y76.56 I-.181 J-1.156
N19910 X102.335 Y75.892 I.734 J-1.038
N19920 X102.296 Y75.281 I3.276 J-.516
N19930 G1 X102.295 Y74.894
N19940 G0 Z2.
N19950 X100.617 Y79.293
N19960 G1 Z-.1 F1800.
N19970 G3 X99.884 Y78.626 I.451 J-1.233 F1000.
N19980 X100.091 Y77.268 I1.108 J-.526
N19990 X100.649 Y76.935 I.894 J.865
N20000 X101.306 Y76.899 I.54 J3.864
N20010 X103.611 Y76.913 I.884 J44.742
N20020 G1 X103.834 Y76.935
N20030 G3 X104.712 Y78.228 I-.321 J1.162
N20040 X103.517 Y79.332 I-1.195 J-.095
N20050 X100.926 Y79.316 I-.982 J-50.223
N20060 G1 X100.617 Y79.293
N20070 G3 X99.891 Y78.639 I.445 J-1.224
N20080 G0 Z2.
N20090 X92.174 Y78.428
N20100 G1 Z-.1 F1800.
N20110 X92.143 Y77.691 F1000.
N20120 G3 X92.153 Y73.062 I154.804 J-2.006
N20130 G1 X92.174 Y72.681
N20140 G3 X93.222 Y71.822 I1.13 J.31
N20150 X94.317 Y72.285 I.111 J1.266
N20160 X94.575 Y73.081 I-.99 J.76
N20170 X94.548 Y78.187 I-134.915 J1.835
N20180 X94.521 Y78.486 I-1.124 J.051
N20190 X93.844 Y79.222 I-1.282 J-.5
N20200 X92.872 Y79.224 I-.488 J-1.004
N20210 X92.174 Y78.428 I.544 J-1.181
N20220 X92.143 Y77.691 I5.184 J-.584
N20230 G1 X92.141 Y77.429
N20240 G0 Z2.
N20250 X89.634 Y78.428
N20260 G1 Z-.1 F1800.
N20270 X89.603 Y77.69 F1000.
N20280 G3 X89.612 Y73.062 I152.888 J-2.02
N20290 G1 X89.634 Y72.681
N20300 G3 X90.682 Y71.822 I1.131 J.31
N20310 X91.778 Y72.285 I.111 J1.266
N20320 X92.035 Y73.082 I-.991 J.76
N20330 X92.008 Y78.19 I-134.83 J1.832
N20340 X91.981 Y78.486 I-1.127 J.049
N20350 X91.301 Y79.223 I-1.287 J-.506
N20360 X90.332 Y79.224 I-.485 J-1.003
N20370 X89.634 Y78.428 I.544 J-1.181
N20380 X89.603 Y77.69 I5.192 J-.586
N20390 G1 X89.602 Y77.429
N20400 G0 Z2.
N20410 X73.269 Y80.889
N20420 G1 Z-.1 F1800.
N20430 G3 X72.474 Y81.637 I-7.744 J-7.431 F1000.
N20440 X71.779 Y81.865 I-.644 J-.787
N20450 X64.376 Y81.872 I-4.032 J-386.505
N20460 G1 X63.965 Y81.862
N20470 G3 X63.467 Y81.662 I.104 J-.979
N20480 X62.649 Y80.889 I5.731 J-6.886
N20490 X61.875 Y80.075 I6.371 J-6.835
N20500 X61.666 Y79.678 I2.017 J-1.313
N20510 X61.661 Y73.412 I1186.436 J-4.068
N20520 X61.707 Y72.708 I5.287 J-.01
N20530 X61.865 Y72.372 I.745 J.145
N20540 X63.866 Y72.35 I1.007 J.63
N20550 X64.063 Y72.836 I-.618 J.534
N20560 X64.096 Y74.342 I-16.966 J1.129
N20570 G2 X64.106 Y78.883 I5064.264 J-8.652
N20580 G3 X64.656 Y79.435 I-168.634 J168.71
N20590 G1 X67.948
N20600 X71.238
N20610 X71.814 Y78.859
N20620 G3 X71.835 Y78.052 I7.833 J-.204
N20630 X72.044 Y77.398 I1.656 J.17
N20640 X72.577 Y76.98 I.881 J.574
N20650 X72.838 Y76.923 I.246 J.496
N20660 X75.899 Y76.891 I2.473 J91.018
N20670 X80.712 Y76.916 I1.082 J251.224
N20680 G1 X80.972 Y76.932
N20690 G3 X81.717 Y78.695 I-.338 J1.182
N20700 X81.083 Y79.258 I-1.23 J-.748
N20710 X80.472 Y79.323 I-.543 J-2.182
N20720 X74.813 Y79.345 I-3.917 J-292.384
N20730 X72.871 Y81.283 I-169.718 J-168.121
N20740 X72.545 Y81.579 I-2.517 J-2.438
N20750 G0 Z2.
N20760 X111.388 Y69.781
N20770 G1 Z-.1 F1800.
N20780 G3 X112.655 Y69.263 I1.039 J.73 F1000.
N20790 X113.199 Y69.551 I-.222 J1.074
N20800 X113.44 Y71.111 I-.834 J.928
N20810 X111.471 Y71.244 I-1.032 J-.639
N20820 X111.931 Y69.342 I.912 J-.786
N20830 G1 X112.168 Y69.268
N20840 X112.212 Y69.263
N20850 G0 Z2.
N20860 X113.764 Y70.804
N20870 G1 Z-.1 F1800.
N20880 X113.739 Y69.933 F1000.
N20890 G3 X113.736 Y61.056 I536.857 J-4.575
N20900 X113.763 Y59.984 I17.028 J-.108
N20910 X114.813 Y59.123 I1.134 J.313
N20920 X115.909 Y59.583 I.115 J1.262
N20930 X116.158 Y60.328 I-.936 J.727
N20940 X116.152 Y70.605 I-593.584 J4.8
N20950 X116.089 Y70.868 I-.771 J-.047
N20960 X115.21 Y71.658 I-1.236 J-.49
N20970 X114.235 Y71.458 I-.268 J-1.164
N20980 X113.764 Y70.804 I.7 J-1.001
N20990 X113.739 Y69.933 I7.359 J-.652
N21000 G1 X113.738 Y69.805
N21010 G0 Z2.
N21020 X116.468 Y69.781
N21030 G1 Z-.1 F1800.
N21040 G3 X117.735 Y69.263 I1.038 J.73 F1000.
N21050 X118.278 Y69.551 I-.223 J1.076
N21060 X118.52 Y71.11 I-.832 J.927
N21070 X116.551 Y71.244 I-1.032 J-.638
N21080 X117.01 Y69.342 I.912 J-.786
N21090 G1 X117.247 Y69.268
N21100 X117.292 Y69.263
N21110 G0 Z2.
N21120 X116.304 Y60.67
N21130 G1 Z-.1 F1800.
N21140 X116.279 Y59.775 F1000.
N21150 G3 X116.277 Y50.789 I551.985 J-4.594
N21160 X116.302 Y49.849 I14.453 J-.088
N21170 X117.114 Y49.012 I1.154 J.307
N21180 X118.584 Y49.65 I.343 J1.222
N21190 X118.674 Y49.977 I-.372 J.279
N21200 X118.711 Y54.539 I-210.05 J3.983
N21210 X118.707 Y59.849 I-534.932 J2.243
N21220 G1 X118.693 Y60.494
N21230 G3 X117.764 Y61.522 I-1.285 J-.227
N21240 X116.777 Y61.323 I-.279 J-1.166
N21250 X116.304 Y60.67 I.702 J-1.006
N21260 X116.279 Y59.775 I7.79 J-.668
N21270 G1 X116.278 Y59.67
N21280 G0 Z2.
N21290 X123.52 Y85.33
N21300 G1 Z-.1 F1800.
N21310 X123.22 F1000.
N21320 X0.
N21330 G3 X-.21 Y85.12 I0. J-.21
N21340 G1 Y0.
N21350 G3 X0. Y-.21 I.21 J0.
N21360 G1 X123.22
N21370 G3 X123.43 Y0. I0. J.21
N21380 G1 Y85.12
N21390 Y85.42
N21400 G0 Z2.
N21410 M5
N21420 G91 G30 Z0.
N21430 G30 X0. Y0.
N21440 M30
%
