%
(2022-02-12 15:55)
(Linuxcnc)
( Tool 13 | 0.3 30deg 1F | H0 )
N100 G21
N110 G0 G17 G40 G49 G80 G90
/ N120 G91 G30 Z0.
/ N130 G30 X0. Y0.
/ N140 G92 X0. Y0. Z0.
N150 G64 P.01
N160 T13 M6
N170 G0 G90 X29.365 Y6.17 S20000 M3
N180 G43 H0 Z2.
N190 G1 Z-.1 F1800.
N200 G3 X30.62 Y5.655 I1.029 J.72 F1000.
N210 X31.159 Y5.942 I-.221 J1.067
N220 X31.399 Y7.488 I-.824 J.919
N230 X29.308 Y7.418 I-1.025 J-.637
N240 X29.901 Y5.734 I1.042 J-.579
N250 X30.19 Y5.654 I.349 J.697
N260 G0 Z2.
N270 X31.879 Y6.17
N280 G1 Z-.1 F1800.
N290 G3 X33.135 Y5.655 I1.032 J.727 F1000.
N300 X33.674 Y5.942 I-.221 J1.066
N310 X33.913 Y7.489 I-.826 J.919
N320 X31.823 Y7.418 I-1.025 J-.638
N330 X32.417 Y5.734 I1.04 J-.58
N340 X32.704 Y5.654 I.347 J.694
N350 G0 Z2.
N360 X24.294 Y7.518
N370 G1 Z-.1 F1800.
N380 G3 X24.102 Y7.044 I.876 J-.63 F1000.
N390 X24.083 Y6.065 I8.713 J-.664
N400 G2 X23.522 Y5.533 I-127.813 J134.078
N410 G1 X15.109
N420 X6.699
N430 X6.172 Y6.065
N440 G3 X6.146 Y6.942 I-32.037 J-.517
N450 X5.926 Y7.537 I-1.029 J-.042
N460 X3.948 Y7.518 I-.983 J-.668
N470 X3.758 Y7.039 I.814 J-.601
N480 X3.772 Y5.272 I14.182 J-.767
N490 X4.006 Y4.795 I.919 J.154
N500 X5.571 Y3.285 I18.315 J17.421
N510 X5.769 Y3.177 I.361 J.425
N520 G1 X5.989 Y3.143
N530 G3 X8.097 Y3.106 I1.612 J31.724
N540 X15.165 Y3.107 I2.917 J4530.89
N550 G1 X24.314 Y3.114
N560 G3 X24.679 Y3.312 I-.568 J1.481
N570 X25.469 Y4.016 I-5.655 J7.142
N580 X26.204 Y4.784 I-7.641 J8.052
N590 X26.39 Y5.042 I-1.075 J.973
N600 X26.481 Y5.514 I-1.585 J.55
N610 X26.502 Y6.889 I-9.156 J.827
N620 X26.334 Y7.448 I-1.13 J-.035
N630 X25.564 Y8.029 I-1.136 J-.704
N640 X24.808 Y7.954 I-.274 J-1.077
N650 X24.151 Y7.25 I.525 J-1.149
N660 X24.084 Y6.749 I1.417 J-.442
N670 G1 X24.083 Y6.56
N680 G0 Z2.
N690 X26.809 Y7.518
N700 G1 Z-.1 F1800.
N710 G3 X26.62 Y7.045 I.773 J-.582 F1000.
N720 X26.596 Y5.875 I11.226 J-.82
N730 G1 Y4.826
N740 G2 X24.798 Y2.993 I-1360.827 J1333.092
N750 G1 X15.127
N760 X5.455
N770 X3.656 Y4.795
N780 G3 X3.638 Y6.74 I-192.088 J-.788
N790 X3.595 Y7.18 I-2.015 J.027
N800 X3.263 Y7.715 I-1.12 J-.325
N810 X1.728 Y7.828 I-.836 J-.869
N820 X1.262 Y7.166 I.701 J-.988
N830 X1.227 Y6.509 I3.873 J-.538
N840 X1.243 Y4.209 I44.362 J-.843
N850 X1.341 Y3.79 I.754 J-.043
N860 X1.766 Y3.267 I2.29 J1.424
N870 X4.134 Y.884 I94.822 J91.891
N880 X4.58 Y.62 I.715 J.698
N890 G1 X4.859 Y.593
N900 X5.67 Y.574
N910 G3 X15.177 Y.566 I5.646 J1141.731
N920 G1 X25.584 Y.574
N930 G3 X25.93 Y.746 I-1.062 J2.576
N940 G1 X26.141 Y.922
N950 G3 X28.772 Y3.594 I-62.804 J64.452
N960 X29.016 Y4.062 I-1.28 J.967
N970 X29.007 Y6.859 I-188.566 J.756
N980 X28.913 Y7.342 I-1.375 J-.018
N990 X28.232 Y7.978 I-1.226 J-.629
N1000 X27.112 Y7.832 I-.432 J-1.058
N1010 X26.666 Y7.253 I.799 J-1.078
N1020 X26.601 Y6.705 I1.714 J-.481
N1030 G1 X26.6 Y6.561
N1040 G0 Z2.
N1050 X8.858 Y9.706
N1060 G1 Z-.1 F1800.
N1070 G3 X8.822 Y9.061 I3.735 J-.531 F1000.
N1080 X8.834 Y6.763 I45.237 J-.906
N1090 X8.945 Y6.317 I.756 J-.05
N1100 X9.667 Y5.694 I1.231 J.698
N1110 X9.836 Y5.668 I.15 J.405
N1120 X12.306 Y5.637 I1.969 J59.066
N1130 X15.072 Y5.658 I.484 J118.092
N1140 G1 X15.421 Y5.678
N1150 G3 X16.162 Y7.427 I-.336 J1.174
N1160 X15.521 Y7.99 I-1.195 J-.713
N1170 X14.945 Y8.056 I-.511 J-1.916
N1180 X11.251 Y8.075 I-3.146 J-251.948
N1190 X11.221 Y9.513 I-49.728 J-.302
N1200 X11.005 Y10.077 I-.95 J-.041
N1210 X10. Y10.602 I-1.004 J-.699
N1220 X8.858 Y9.706 I.078 J-1.276
N1230 X8.822 Y9.061 I3.735 J-.531
N1240 G1 X8.82 Y8.707
N1250 G0 Z2.
N1260 X29.364 Y13.79
N1270 G1 Z-.1 F1800.
N1280 G3 X31.474 Y14.939 I1.002 J.671 F1000.
N1290 X29.447 Y15.241 I-1.103 J-.452
N1300 X30.129 Y13.278 I.913 J-.782
N1310 G1 X30.185 Y13.273
N1320 G0 Z2.
N1330 X31.879 Y13.79
N1340 G1 Z-.1 F1800.
N1350 G3 X33.989 Y14.939 I1.002 J.671 F1000.
N1360 X31.961 Y15.241 I-1.104 J-.452
N1370 X32.643 Y13.278 I.915 J-.782
N1380 G1 X32.7 Y13.273
N1390 G0 Z2.
N1400 X36.969 Y15.137
N1410 G1 Z-.1 F1800.
N1420 G3 X36.781 Y14.665 I.766 J-.579 F1000.
N1430 X36.756 Y13.49 I11.275 J-.823
N1440 G1 Y12.44
N1450 X34.93 Y10.614
N1460 X23.773 Y10.601
N1470 G3 X23.439 Y10.44 I.407 J-1.269
N1480 X22.726 Y9.833 I4.155 J-5.606
N1490 X21.794 Y8.869 I7.902 J-8.57
N1500 X21.529 Y8.414 I1.098 J-.942
N1510 X21.52 Y6.909 I78.238 J-1.212
N1520 X21.561 Y6.527 I1.617 J-.021
N1530 X22.255 Y5.74 I1.266 J.417
N1540 X23.713 Y6.177 I.472 J1.076
N1550 X23.915 Y6.641 I-.827 J.637
N1560 X23.952 Y7.628 I-10.386 J.877
N1570 G1 X24.237 Y7.897
N1580 X24.525 Y8.169
N1590 X35.718 Y8.194
N1600 G3 X36.289 Y8.556 I-.573 J1.533
N1610 X38.896 Y11.181 I-61.188 J63.359
N1620 X39.166 Y11.77 I-.702 J.678
N1630 X39.189 Y12.757 I-9.351 J.716
N1640 X39.145 Y14.69 I-30.896 J.257
N1650 G1 X39.125 Y14.836
N1660 G3 X38.456 Y15.569 I-1.274 J-.491
N1670 X37.482 Y15.573 I-.491 J-.998
N1680 X36.826 Y14.873 I.531 J-1.155
N1690 X36.761 Y14.325 I1.716 J-.481
N1700 G1 X36.76 Y14.18
N1710 G0 Z2.
N1720 X11.571 Y17.655
N1730 G1 Z-.1 F1800.
N1740 G3 X11.383 Y17.162 I.699 J-.549 F1000.
N1750 X11.356 Y15.695 I16.534 J-1.037
N1760 X11.373 Y13.133 I149.384 J-.292
N1770 X11.625 Y12.448 I.996 J-.022
N1780 X13.019 Y11.047 I18.431 J16.95
N1790 X13.36 Y10.811 I.834 J.838
N1800 X13.903 Y10.736 I.486 J1.517
N1810 X16.427 Y10.728 I1.543 J91.634
N1820 G1 X19.209 Y10.735
N1830 G3 X19.57 Y10.929 I-.453 J1.277
N1840 X20.378 Y11.666 I-6.308 J7.724
N1850 X21.132 Y12.464 I-7.755 J8.083
N1860 G1 X21.277 Y12.666
N1870 G3 X21.374 Y13.155 I-1.679 J.588
N1880 X21.399 Y14.508 I-8.714 J.833
N1890 X21.081 Y15.269 I-1.116 J-.019
N1900 X19.76 Y15.602 I-.906 J-.808
N1910 X19.045 Y14.869 I.488 J-1.191
N1920 X18.979 Y14.369 I1.413 J-.443
N1930 X18.977 Y13.709 I44.453 J-.452
N1940 G2 X18.42 Y13.154 I-133.894 J133.616
N1950 G1 X16.382
N1960 X14.344
N1970 X13.791 Y13.709
N1980 G3 X13.768 Y16.94 I-308.961 J-.576
N1990 X13.677 Y17.467 I-1.654 J-.013
N2000 X12.999 Y18.11 I-1.237 J-.628
N2010 X12.083 Y18.088 I-.434 J-1.026
N2020 X11.423 Y17.38 I.56 J-1.183
N2030 X11.362 Y16.698 I2.417 J-.561
N2040 G0 Z2.
N2050 X13.937 Y17.3
N2060 G1 Z-.1 F1800.
N2070 G3 X13.902 Y16.658 I3.695 J-.527 F1000.
N2080 X13.915 Y14.38 I44.362 J-.876
N2090 X14.03 Y13.923 I.793 J-.044
N2100 X15.239 Y13.265 I1.114 J.607
N2110 X15.596 Y13.374 I-.08 J.901
N2120 X15.977 Y13.612 I-.822 J1.745
N2130 X16.063 Y13.75 I-.41 J.349
N2140 X16.252 Y14.078 I-2.495 J1.659
N2150 X16.312 Y14.647 I-1.893 J.486
N2160 X16.295 Y17.162 I-66.734 J.807
N2170 X16.086 Y17.672 I-.88 J-.063
N2180 X15.08 Y18.196 I-1.006 J-.702
N2190 X13.937 Y17.3 I.078 J-1.276
N2200 X13.902 Y16.658 I3.695 J-.527
N2210 G1 X13.899 Y16.302
N2220 G0 Z2.
N2230 X16.477 Y17.3
N2240 G1 Z-.1 F1800.
N2250 G3 X16.442 Y16.643 I3.892 J-.538 F1000.
N2260 X16.456 Y14.358 I43.723 J-.866
N2270 G1 X16.477 Y14.147
N2280 G3 X17.76 Y13.28 I1.149 J.319
N2290 X18.814 Y14.131 I-.127 J1.237
N2300 X18.852 Y14.711 I-2.9 J.481
N2310 X18.827 Y17.204 I-30.7 J.942
N2320 G1 X18.806 Y17.35
N2330 G3 X18.132 Y18.085 I-1.275 J-.493
N2340 X17.169 Y18.087 I-.483 J-.997
N2350 X16.477 Y17.3 I.539 J-1.172
N2360 X16.442 Y16.643 I3.892 J-.538
N2370 G1 X16.44 Y16.301
N2380 G0 Z2.
N2390 X21.556 Y17.3
N2400 G1 Z-.1 F1800.
N2410 G3 X21.521 Y16.643 I3.894 J-.538 F1000.
N2420 X21.535 Y14.358 I43.723 J-.866
N2430 G1 X21.556 Y14.147
N2440 G3 X22.841 Y13.281 I1.15 J.32
N2450 X23.895 Y14.131 I-.129 J1.238
N2460 X23.933 Y14.711 I-2.9 J.481
N2470 X23.921 Y16.977 I-44.049 J.89
N2480 X23.886 Y17.351 I-2.14 J-.011
N2490 X23.212 Y18.085 I-1.275 J-.493
N2500 X22.249 Y18.087 I-.483 J-.997
N2510 X21.556 Y17.3 I.541 J-1.175
N2520 X21.521 Y16.643 I3.894 J-.538
N2530 G1 X21.519 Y16.302
N2540 G0 Z2.
N2550 X24.122 Y17.3
N2560 G1 Z-.1 F1800.
N2570 G3 X24.087 Y16.643 I3.892 J-.538 F1000.
N2580 X24.101 Y14.358 I43.723 J-.866
N2590 G1 X24.122 Y14.147
N2600 G3 X25.407 Y13.281 I1.15 J.32
N2610 X26.46 Y14.131 I-.129 J1.236
N2620 X26.498 Y14.712 I-2.911 J.481
N2630 X26.486 Y16.98 I-44.605 J.899
N2640 X26.452 Y17.35 I-2.168 J-.012
N2650 X25.777 Y18.086 I-1.276 J-.492
N2660 X24.814 Y18.087 I-.483 J-.998
N2670 X24.122 Y17.3 I.539 J-1.172
N2680 X24.087 Y16.643 I3.892 J-.538
N2690 G1 X24.085 Y16.301
N2700 G0 Z2.
N2710 X26.637 Y17.3
N2720 G1 Z-.1 F1800.
N2730 G3 X26.601 Y16.658 I3.705 J-.529 F1000.
N2740 X26.615 Y14.38 I43.66 J-.884
N2750 X26.734 Y13.909 I.844 J-.037
N2760 X27.92 Y13.28 I1.054 J.556
N2770 X28.975 Y14.131 I-.127 J1.237
N2780 X29.013 Y14.712 I-2.911 J.481
N2790 X29.001 Y16.98 I-44.646 J.9
N2800 X28.967 Y17.351 I-2.172 J-.012
N2810 X28.289 Y18.086 I-1.285 J-.504
N2820 X27.329 Y18.087 I-.48 J-.994
N2830 X26.637 Y17.3 I.539 J-1.172
N2840 X26.601 Y16.658 I3.705 J-.529
N2850 G1 X26.599 Y16.302
N2860 G0 Z2.
N2870 X36.203 Y18.082
N2880 G1 Z-.1 F1800.
N2890 G3 X35.771 Y17.754 I1.14 J-1.949 F1000.
N2900 X34.523 Y16.515 I10.456 J-11.773
N2910 X34.229 Y16.035 I1.064 J-.982
N2920 G2 X34.214 Y13.709 I-910.701 J4.624
N2930 G3 X33.661 Y13.154 I1860.158 J-1853.242
N2940 X23.193 Y13.14 I-2.714 J-1906.083
N2950 X22.417 Y13.095 I.012 J-6.915
N2960 X22.067 Y12.936 I.133 J-.757
N2970 X21.055 Y11.987 I10.95 J-12.693
N2980 X19.34 Y10.219 I31.253 J-32.035
N2990 X18.989 Y9.685 I1.146 J-1.134
N3000 X18.981 Y7.105 I383.613 J-2.565
N3010 X19.014 Y6.577 I3.004 J-.074
N3020 X19.186 Y6.195 I.861 J.157
N3030 X21.174 Y6.177 I1. J.626
N3040 X21.372 Y6.633 I-.737 J.59
N3050 X21.402 Y7.807 I-10.975 J.876
N3060 G1 X21.41 Y8.897
N3070 X23.234 Y10.721
N3080 X34.448 Y10.735
N3090 G3 X34.81 Y10.929 I-.454 J1.28
N3100 X36.437 Y12.545 I-8.694 J10.382
N3110 X36.579 Y12.833 I-.617 J.483
N3120 X36.644 Y13.481 I-2.415 J.57
N3130 X36.649 Y15.224 I-135.517 J1.257
N3140 X37.213 Y15.776 I-144.377 J148.209
N3150 X38.034 Y15.784 I.206 J20.578
N3160 X38.632 Y15.988 I-.026 J1.055
N3170 X39.142 Y17.218 I-.639 J.986
N3180 X38.162 Y18.179 I-1.181 J-.224
N3190 X37.402 Y18.215 I-.596 J-4.637
N3200 X36.416 Y18.138 I.047 J-7.007
N3210 X36.054 Y17.987 I.054 J-.639
N3220 X35.436 Y17.444 I4.325 J-5.544
N3230 G0 Z2.
N3240 X-.15 Y21.97
N3250 G1 Z-.1 F1800.
N3260 Y0. F1000.
N3270 G3 X0. Y-.15 I.15 J0.
N3280 G1 X23.686
N3290 X47.37
N3300 G3 X47.52 Y0. I0. J.15
N3310 G1 Y10.984
N3320 Y21.97
N3330 G3 X47.37 Y22.12 I-.15 J0.
N3340 G1 X23.686
N3350 X0.
N3360 G3 X-.15 Y21.97 I0. J-.15
N3370 G1 Y20.97
N3380 G0 Z2.
N3390 M5
N3400 G91 G30 Z0.
N3410 G30 X0. Y0.
N3420 M30
%
